; Generated with MatterSlice 2.20.1
; filamentDiameter = 1.75
; extrusionWidth = 0.4
; firstLayerExtrusionWidth = 0.4
; layerThickness = 0.3
; firstLayerThickness = 0.2
; automatic settings before start_gcode
G21 ; set units to millimeters
M107 ; fan off
T0 ; set the active extruder to 0
; settings from start_gcode
M104 S210
M140 S70
G28 W       ; Home without mesh level
G80         ; Probe
G0 Z5 F5000
M117 Heating
M109 S210
M190 S70
M117 Printing
; automatic settings after start_gcode
T0 ; set the active extruder to 0
G90 ; use absolute coordinates
G92 E0 ; reset the expected extruder position
M82 ; use absolute distance for extrusion
; Layer count: 44
; Layer Change GCode
; LAYER:0
; LAYER_HEIGHT:0.2
; TYPE:FILL
M400
M107
G0 X107.69 Y80.06 Z0.8 F4800
; TYPE:SKIRT
G0 Z0.2
G0 F2100
G1 X109.24 Y78.24 E0.079 F1200
G1 X111.06 Y76.69 E0.159
G1 X113.09 Y75.44 E0.238
G1 X115.3 Y74.53 E0.318
G1 X117.62 Y73.97 E0.397
G1 X120 Y73.78 E0.477
G1 X122.38 Y73.97 E0.556
G1 X124.7 Y74.53 E0.635
G1 X126.91 Y75.44 E0.715
G1 X128.94 Y76.69 E0.794
G1 X130.76 Y78.24 E0.874
G1 X132.31 Y80.06 E0.953
G1 X133.56 Y82.09 E1.032
G1 X134.47 Y84.3 E1.112
G1 X135.03 Y86.62 E1.191
G1 X135.22 Y89 E1.271
G1 X135.03 Y91.38 E1.35
G1 X134.47 Y93.7 E1.429
G1 X133.56 Y95.91 E1.509
G1 X132.31 Y97.94 E1.588
G1 X130.76 Y99.76 E1.668
G1 X128.94 Y101.31 E1.747
G1 X126.91 Y102.56 E1.827
G1 X124.7 Y103.47 E1.906
G1 X122.38 Y104.03 E1.985
G1 X120 Y104.22 E2.065
G1 X117.62 Y104.03 E2.144
G1 X115.3 Y103.47 E2.224
G1 X113.09 Y102.56 E2.303
G1 X111.06 Y101.31 E2.382
G1 X109.24 Y99.76 E2.462
G1 X107.69 Y97.94 E2.541
G1 X106.44 Y95.91 E2.621
G1 X105.53 Y93.7 E2.7
G1 X104.97 Y91.38 E2.78
G1 X104.78 Y89 E2.859
G1 X104.97 Y86.62 E2.938
G1 X105.53 Y84.3 E3.018
G1 X106.44 Y82.09 E3.097
G1 X107.69 Y80.06 E3.177
G0 X108.01 Y80.29 F4800
G1 X109.52 Y78.52 E3.254 F1200
G1 X111.29 Y77.01 E3.331
G1 X113.27 Y75.8 E3.409
G1 X115.42 Y74.91 E3.486
G1 X117.68 Y74.37 E3.563
G1 X120 Y74.19 E3.641
G1 X122.32 Y74.37 E3.718
G1 X124.58 Y74.91 E3.795
G1 X126.73 Y75.8 E3.873
G1 X128.71 Y77.01 E3.95
G1 X130.48 Y78.52 E4.027
G1 X131.99 Y80.29 E4.105
G1 X133.2 Y82.27 E4.182
G1 X134.09 Y84.42 E4.259
G1 X134.63 Y86.68 E4.336
G1 X134.82 Y89 E4.414
G1 X134.63 Y91.32 E4.491
G1 X134.09 Y93.58 E4.568
G1 X133.2 Y95.73 E4.646
G1 X131.99 Y97.71 E4.723
G1 X130.48 Y99.48 E4.8
G1 X128.71 Y100.99 E4.878
G1 X126.73 Y102.2 E4.955
G1 X124.58 Y103.09 E5.032
G1 X122.32 Y103.63 E5.11
G1 X120 Y103.82 E5.187
G1 X117.68 Y103.63 E5.264
G1 X115.42 Y103.09 E5.342
G1 X113.27 Y102.2 E5.419
G1 X111.29 Y100.99 E5.496
G1 X109.52 Y99.48 E5.574
G1 X108.01 Y97.71 E5.651
G1 X106.8 Y95.73 E5.728
G1 X105.91 Y93.58 E5.806
G1 X105.37 Y91.32 E5.883
G1 X105.19 Y89 E5.96
G1 X105.37 Y86.68 E6.038
G1 X105.91 Y84.42 E6.115
G1 X106.8 Y82.27 E6.192
G1 X108.01 Y80.29 E6.269
G0 X108.34 Y80.53 F4800
G1 X109.81 Y78.81 E6.345 F1200
G1 X111.53 Y77.34 E6.42
G1 X113.46 Y76.16 E6.495
G1 X115.55 Y75.29 E6.57
G1 X117.75 Y74.76 E6.646
G1 X120 Y74.59 E6.721
G1 X122.25 Y74.76 E6.796
G1 X124.45 Y75.29 E6.871
G1 X126.54 Y76.16 E6.946
G1 X128.47 Y77.34 E7.022
G1 X130.19 Y78.81 E7.097
G1 X131.66 Y80.53 E7.172
G1 X132.84 Y82.46 E7.247
G1 X133.71 Y84.55 E7.323
G1 X134.24 Y86.74 E7.398
G1 X134.41 Y89 E7.473
G1 X134.24 Y91.26 E7.548
G1 X133.71 Y93.45 E7.624
G1 X132.84 Y95.54 E7.699
G1 X131.66 Y97.47 E7.774
G1 X130.19 Y99.19 E7.849
G1 X128.47 Y100.66 E7.924
G1 X126.54 Y101.84 E8
G1 X124.45 Y102.71 E8.075
G1 X122.26 Y103.24 E8.15
G1 X120 Y103.41 E8.225
G1 X117.74 Y103.24 E8.301
G1 X115.55 Y102.71 E8.376
G1 X113.46 Y101.84 E8.451
G1 X111.53 Y100.66 E8.526
G1 X109.81 Y99.19 E8.601
G1 X108.34 Y97.47 E8.677
G1 X107.16 Y95.54 E8.752
G1 X106.29 Y93.45 E8.827
G1 X105.76 Y91.25 E8.902
G1 X105.59 Y89 E8.978
G1 X105.76 Y86.75 E9.053
G1 X106.29 Y84.55 E9.128
G1 X107.16 Y82.46 E9.203
G1 X108.34 Y80.53 E9.279
G0 X108.66 Y80.76 F4800
G1 X110.09 Y79.09 E9.352 F1200
G1 X111.76 Y77.66 E9.425
G1 X113.64 Y76.51 E9.498
G1 X115.67 Y75.67 E9.571
G1 X117.81 Y75.16 E9.644
G1 X120 Y74.99 E9.717
G1 X122.19 Y75.16 E9.79
G1 X124.33 Y75.67 E9.864
G1 X126.36 Y76.51 E9.937
G1 X128.24 Y77.66 E10.01
G1 X129.91 Y79.09 E10.083
G1 X131.34 Y80.76 E10.156
G1 X132.49 Y82.64 E10.229
G1 X133.33 Y84.67 E10.302
G1 X133.84 Y86.81 E10.375
G1 X134.01 Y89 E10.449
G1 X133.84 Y91.19 E10.522
G1 X133.33 Y93.33 E10.595
G1 X132.49 Y95.36 E10.668
G1 X131.34 Y97.24 E10.741
G1 X129.91 Y98.91 E10.814
G1 X128.24 Y100.34 E10.887
G1 X126.36 Y101.49 E10.961
G1 X124.33 Y102.33 E11.034
G1 X122.19 Y102.84 E11.107
G1 X120 Y103.01 E11.18
G1 X117.81 Y102.84 E11.253
G1 X115.67 Y102.33 E11.326
G1 X113.64 Y101.49 E11.399
G1 X111.76 Y100.34 E11.472
G1 X110.09 Y98.91 E11.546
G1 X108.66 Y97.24 E11.619
G1 X107.51 Y95.36 E11.692
G1 X106.67 Y93.33 E11.765
G1 X106.16 Y91.19 E11.838
G1 X105.99 Y89 E11.911
G1 X106.16 Y86.81 E11.984
G1 X106.67 Y84.67 E12.058
G1 X107.51 Y82.64 E12.131
G1 X108.66 Y80.76 E12.204
G0 X108.99 Y81 F4800
G1 X110.37 Y79.37 E12.275 F1200
G1 X112 Y77.99 E12.346
G1 X113.82 Y76.87 E12.417
G1 X115.79 Y76.05 E12.488
G1 X117.87 Y75.56 E12.559
G1 X120 Y75.39 E12.63
G1 X122.13 Y75.56 E12.701
G1 X124.21 Y76.05 E12.772
G1 X126.18 Y76.87 E12.843
G1 X128 Y77.99 E12.914
G1 X129.63 Y79.37 E12.985
G1 X131.01 Y81 E13.056
G1 X132.13 Y82.82 E13.127
G1 X132.95 Y84.79 E13.198
G1 X133.44 Y86.87 E13.269
G1 X133.61 Y89 E13.34
G1 X133.44 Y91.13 E13.412
G1 X132.95 Y93.21 E13.482
G1 X132.13 Y95.18 E13.554
G1 X131.01 Y97 E13.625
G1 X129.63 Y98.63 E13.696
G1 X128 Y100.01 E13.767
G1 X126.18 Y101.13 E13.838
G1 X124.21 Y101.95 E13.909
G1 X122.13 Y102.44 E13.98
G1 X120 Y102.61 E14.051
G1 X117.87 Y102.44 E14.122
G1 X115.79 Y101.95 E14.193
G1 X113.82 Y101.13 E14.264
G1 X112 Y100.01 E14.335
G1 X110.37 Y98.63 E14.406
G1 X108.99 Y97 E14.477
G1 X107.87 Y95.18 E14.548
G1 X107.05 Y93.21 E14.619
G1 X106.56 Y91.13 E14.69
G1 X106.39 Y89 E14.761
G1 X106.56 Y86.87 E14.832
G1 X107.05 Y84.79 E14.903
G1 X107.87 Y82.82 E14.974
G1 X108.99 Y81 E15.045
G0 X109.31 Y81.24 F4800
G1 X110.66 Y79.66 E15.114 F1200
G1 X112.24 Y78.31 E15.183
G1 X114 Y77.23 E15.252
G1 X115.92 Y76.44 E15.321
G1 X117.93 Y75.95 E15.39
G1 X120 Y75.79 E15.459
G1 X122.07 Y75.95 E15.528
G1 X124.08 Y76.44 E15.597
G1 X126 Y77.23 E15.666
G1 X127.76 Y78.31 E15.735
G1 X129.34 Y79.66 E15.804
G1 X130.69 Y81.24 E15.873
G1 X131.77 Y83 E15.942
G1 X132.56 Y84.92 E16.011
G1 X133.05 Y86.93 E16.079
G1 X133.21 Y89 E16.148
G1 X133.05 Y91.07 E16.217
G1 X132.56 Y93.08 E16.286
G1 X131.77 Y95 E16.355
G1 X130.69 Y96.76 E16.424
G1 X129.34 Y98.34 E16.493
G1 X127.76 Y99.69 E16.562
G1 X126 Y100.77 E16.631
G1 X124.08 Y101.56 E16.7
G1 X122.07 Y102.05 E16.769
G1 X120 Y102.21 E16.838
G1 X117.93 Y102.05 E16.907
G1 X115.92 Y101.56 E16.976
G1 X114 Y100.77 E17.045
G1 X112.24 Y99.69 E17.114
G1 X110.66 Y98.34 E17.183
G1 X109.31 Y96.76 E17.252
G1 X108.23 Y95 E17.321
G1 X107.44 Y93.08 E17.389
G1 X106.95 Y91.07 E17.458
G1 X106.79 Y89 E17.527
G1 X106.95 Y86.93 E17.596
G1 X107.44 Y84.92 E17.665
G1 X108.23 Y83 E17.734
G1 X109.31 Y81.24 E17.803
G0 X109.64 Y81.47 F4800
G1 X110.94 Y79.94 E17.87 F1200
G1 X112.47 Y78.64 E17.937
G1 X114.19 Y77.59 E18.004
G1 X116.04 Y76.82 E18.071
G1 X118 Y76.35 E18.137
G1 X120 Y76.19 E18.204
G1 X122 Y76.35 E18.271
G1 X123.96 Y76.82 E18.338
G1 X125.81 Y77.59 E18.405
G1 X127.53 Y78.64 E18.472
G1 X129.06 Y79.94 E18.538
G1 X130.36 Y81.47 E18.605
G1 X131.41 Y83.19 E18.672
G1 X132.18 Y85.04 E18.739
G1 X132.65 Y87 E18.806
G1 X132.81 Y89 E18.873
G1 X132.65 Y91 E18.94
G1 X132.18 Y92.96 E19.006
G1 X131.41 Y94.81 E19.073
G1 X130.36 Y96.53 E19.14
G1 X129.06 Y98.06 E19.207
G1 X127.53 Y99.36 E19.274
G1 X125.81 Y100.41 E19.341
G1 X123.96 Y101.18 E19.408
G1 X122 Y101.65 E19.474
G1 X120 Y101.81 E19.541
G1 X118 Y101.65 E19.608
G1 X116.04 Y101.18 E19.675
G1 X114.19 Y100.41 E19.742
G1 X112.47 Y99.36 E19.809
G1 X110.94 Y98.06 E19.875
G1 X109.64 Y96.53 E19.942
G1 X108.59 Y94.81 E20.009
G1 X107.82 Y92.96 E20.076
G1 X107.35 Y91 E20.143
G1 X107.19 Y89 E20.21
G1 X107.35 Y87 E20.277
G1 X107.82 Y85.04 E20.343
G1 X108.59 Y83.19 E20.41
G1 X109.64 Y81.47 E20.477
G0 X109.96 Y81.71 F4800
G1 X111.23 Y80.23 E20.542 F1200
G1 X112.71 Y78.96 E20.607
G1 X114.37 Y77.94 E20.671
G1 X116.17 Y77.2 E20.736
G1 X118.06 Y76.75 E20.801
G1 X120 Y76.59 E20.866
G1 X121.94 Y76.75 E20.93
G1 X123.83 Y77.2 E20.995
G1 X125.63 Y77.94 E21.06
G1 X127.29 Y78.96 E21.125
G1 X128.77 Y80.23 E21.189
G1 X130.04 Y81.71 E21.254
G1 X131.06 Y83.37 E21.319
G1 X131.8 Y85.17 E21.384
G1 X132.25 Y87.06 E21.448
G1 X132.41 Y89 E21.513
G1 X132.25 Y90.94 E21.578
G1 X131.8 Y92.83 E21.643
G1 X131.06 Y94.63 E21.707
G1 X130.04 Y96.29 E21.772
G1 X128.77 Y97.77 E21.837
G1 X127.29 Y99.04 E21.902
G1 X125.63 Y100.06 E21.967
G1 X123.83 Y100.8 E22.031
G1 X121.94 Y101.25 E22.096
G1 X120 Y101.41 E22.161
G1 X118.06 Y101.25 E22.226
G1 X116.17 Y100.8 E22.29
G1 X114.37 Y100.06 E22.355
G1 X112.71 Y99.04 E22.42
G1 X111.23 Y97.77 E22.485
G1 X109.96 Y96.29 E22.549
G1 X108.94 Y94.63 E22.614
G1 X108.2 Y92.83 E22.679
G1 X107.75 Y90.94 E22.744
G1 X107.59 Y89 E22.808
G1 X107.75 Y87.06 E22.873
G1 X108.2 Y85.17 E22.938
G1 X108.94 Y83.37 E23.003
G1 X109.96 Y81.71 E23.067
G1 E22.267 F2100
G0 Z0.8
G0 X120 Y98.8 F4800
; TYPE:WALL-OUTER
G0 Z0.2
G1 E23.067 F2100
G1 X118.47 Y98.68 E23.118 F1200
G1 X116.98 Y98.32 E23.169
G1 X115.55 Y97.73 E23.221
G1 X114.24 Y96.93 E23.272
G1 X113.07 Y95.93 E23.323
G1 X112.07 Y94.76 E23.374
G1 X111.27 Y93.45 E23.425
G1 X110.68 Y92.02 E23.477
G1 X110.32 Y90.53 E23.528
G1 X110.2 Y89 E23.579
G1 X110.32 Y87.47 E23.63
G1 X110.68 Y85.98 E23.681
G1 X111.27 Y84.55 E23.732
G1 X112.07 Y83.24 E23.783
G1 X113.07 Y82.07 E23.834
G1 X114.24 Y81.07 E23.886
G1 X115.55 Y80.27 E23.937
G1 X116.98 Y79.68 E23.988
G1 X118.47 Y79.32 E24.039
G1 X120 Y79.2 E24.09
G1 X121.53 Y79.32 E24.141
G1 X123.02 Y79.68 E24.192
G1 X124.45 Y80.27 E24.244
G1 X125.76 Y81.07 E24.295
G1 X126.93 Y82.07 E24.346
G1 X127.93 Y83.24 E24.397
G1 X128.73 Y84.55 E24.448
G1 X129.32 Y85.98 E24.5
G1 X129.68 Y87.47 E24.55
G1 X129.8 Y89 E24.602
G1 X129.68 Y90.53 E24.653
G1 X129.32 Y92.02 E24.704
G1 X128.73 Y93.45 E24.755
G1 X127.93 Y94.76 E24.806
G1 X126.93 Y95.93 E24.857
G1 X125.76 Y96.93 E24.908
G1 X124.45 Y97.73 E24.96
G1 X123.02 Y98.32 E25.011
G1 X121.53 Y98.68 E25.062
G1 X120.12 Y98.79 E25.109
G0 X120 Y98.8
G0 X118.47 Y98.68
G0 X117.04 Y98.34
G0 X120 Y98.4 F4800
; TYPE:WALL-INNER
G1 X118.53 Y98.28 E25.158 F1200
G1 X117.1 Y97.94 E25.207
G1 X115.74 Y97.38 E25.256
G1 X114.47 Y96.6 E25.306
G1 X113.35 Y95.65 E25.354
G1 X112.4 Y94.53 E25.403
G1 X111.62 Y93.26 E25.453
G1 X111.06 Y91.9 E25.502
G1 X110.72 Y90.47 E25.55
G1 X110.6 Y89 E25.6
G1 X110.72 Y87.53 E25.649
G1 X111.06 Y86.1 E25.698
G1 X111.62 Y84.74 E25.747
G1 X112.4 Y83.47 E25.796
G1 X113.35 Y82.35 E25.845
G1 X114.47 Y81.4 E25.894
G1 X115.74 Y80.62 E25.943
G1 X117.1 Y80.06 E25.992
G1 X118.53 Y79.72 E26.041
G1 X120 Y79.6 E26.09
G1 X121.47 Y79.72 E26.139
G1 X122.9 Y80.06 E26.188
G1 X124.26 Y80.62 E26.237
G1 X125.53 Y81.4 E26.287
G1 X126.65 Y82.35 E26.335
G1 X127.6 Y83.47 E26.384
G1 X128.38 Y84.74 E26.434
G1 X128.94 Y86.1 E26.483
G1 X129.28 Y87.53 E26.531
G1 X129.4 Y89 E26.581
G1 X129.28 Y90.47 E26.63
G1 X128.94 Y91.9 E26.679
G1 X128.38 Y93.26 E26.728
G1 X127.6 Y94.53 E26.777
G1 X126.65 Y95.65 E26.826
G1 X125.53 Y96.6 E26.875
G1 X124.26 Y97.38 E26.924
G1 X122.9 Y97.94 E26.973
G1 X121.47 Y98.28 E27.022
G1 X120.12 Y98.39 E27.067
G0 X120 Y98.4
G0 Y98 F4800
G1 X118.59 Y97.89 E27.114 F1200
G1 X117.22 Y97.56 E27.161
G1 X115.92 Y97.02 E27.208
G1 X114.71 Y96.28 E27.255
G1 X113.64 Y95.36 E27.302
G1 X112.72 Y94.29 E27.349
G1 X111.98 Y93.08 E27.396
G1 X111.44 Y91.78 E27.443
G1 X111.11 Y90.41 E27.49
G1 X111 Y89 E27.537
G1 X111.11 Y87.59 E27.584
G1 X111.44 Y86.22 E27.63
G1 X111.98 Y84.92 E27.677
G1 X112.72 Y83.71 E27.725
G1 X113.64 Y82.64 E27.771
G1 X114.71 Y81.72 E27.818
G1 X115.92 Y80.98 E27.865
G1 X117.22 Y80.44 E27.912
G1 X118.59 Y80.11 E27.959
G1 X120 Y80 E28.006
G1 X121.41 Y80.11 E28.053
G1 X122.78 Y80.44 E28.1
G1 X124.08 Y80.98 E28.147
G1 X125.29 Y81.72 E28.194
G1 X126.36 Y82.64 E28.241
G1 X127.28 Y83.71 E28.288
G1 X128.02 Y84.92 E28.335
G1 X128.56 Y86.22 E28.382
G1 X128.89 Y87.59 E28.429
G1 X129 Y89 E28.476
G1 X128.89 Y90.41 E28.523
G1 X128.56 Y91.78 E28.57
G1 X128.02 Y93.08 E28.617
G1 X127.28 Y94.29 E28.664
G1 X126.36 Y95.36 E28.711
G1 X125.29 Y96.28 E28.757
G1 X124.08 Y97.02 E28.805
G1 X122.78 Y97.56 E28.852
G1 X121.41 Y97.89 E28.898
G1 X120.12 Y97.99 E28.941
G0 X120 Y98
G0 X120.1 Y97.69 F4800
; TYPE:FILL
G1 X128.69 Y89.1 E29.345 F1200
G0 X128.66 Y88.56 F4800
G1 X119.56 Y97.66 E29.773 F1200
G0 X119.04 Y97.62 F4800
G1 X128.62 Y88.04 E30.224 F1200
G0 X128.56 Y87.53 F4800
G1 X118.53 Y97.56 E30.695 F1200
G0 X118.07 Y97.45 F4800
G1 X128.45 Y87.07 E31.184 F1200
G0 X128.34 Y86.62 F4800
G1 X117.62 Y97.34 E31.688 F1200
G0 X117.18 Y97.21 F4800
G1 X128.21 Y86.18 E32.207 F1200
G0 X128.05 Y85.78 F4800
G1 X116.78 Y97.05 E32.737 F1200
G0 X116.38 Y96.88 F4800
G1 X127.88 Y85.38 E33.278 F1200
G0 X127.71 Y84.99 F4800
G1 X115.99 Y96.71 E33.829 F1200
G0 X115.64 Y96.49 F4800
G1 X127.49 Y84.64 E34.387 F1200
G0 X127.28 Y84.29 F4800
G1 X115.29 Y96.28 E34.951 F1200
G0 X114.94 Y96.06 F4800
G1 X127.06 Y83.94 E35.521 F1200
G0 X126.81 Y83.63 F4800
G1 X114.62 Y95.81 E36.094 F1200
G0 X114.32 Y95.55 F4800
G1 X126.55 Y83.32 E36.67 F1200
G0 X126.29 Y83.01 F4800
G1 X114.01 Y95.29 E37.247 F1200
G0 X113.73 Y95.01 F4800
G1 X126.01 Y82.73 E37.825 F1200
G0 X125.7 Y82.47 F4800
G1 X113.47 Y94.7 E38.4 F1200
G0 X113.21 Y94.4 F4800
G1 X125.4 Y82.21 E38.974 F1200
G0 X125.09 Y81.95 F4800
G1 X112.95 Y94.09 E39.544 F1200
G0 X112.74 Y93.74 F4800
G1 X124.74 Y81.74 E40.109 F1200
G0 X124.39 Y81.52 F4800
G1 X112.52 Y93.39 E40.667 F1200
G0 X112.31 Y93.04 F4800
G1 X124.04 Y81.31 E41.219 F1200
G0 X123.65 Y81.13 F4800
G1 X112.13 Y92.65 E41.761 F1200
G0 X111.96 Y92.25 F4800
G1 X123.25 Y80.96 E42.292 F1200
G0 X122.85 Y80.8 F4800
G1 X111.8 Y91.85 E42.811 F1200
G0 X111.66 Y91.42 F4800
G1 X122.42 Y80.66 E43.317 F1200
G0 X121.96 Y80.56 F4800
G1 X111.55 Y90.96 E43.807 F1200
G0 X111.44 Y90.5 F4800
G1 X121.5 Y80.45 E44.28 F1200
G0 X121 Y80.38 F4800
G1 X111.38 Y90 E44.732 F1200
G0 X111.34 Y89.48 F4800
G1 X120.48 Y80.34 E45.162 F1200
G0 X119.94 Y80.31 F4800
G1 X111.31 Y88.94 E45.568 F1200
G0 X111.36 Y88.33 F4800
G1 X119.33 Y80.36 E45.943 F1200
G0 X118.72 Y80.41 F4800
G1 X111.4 Y87.72 E46.287 F1200
G0 X111.57 Y86.99 F4800
G1 X117.99 Y80.57 E46.589 F1200
G0 X117.22 Y80.77 F4800
G1 X111.77 Y86.22 E46.846 F1200
G1 E46.046 F2100
G0 Z0.8
G0 X112.17 Y85.26 F4800
G0 Z0.2
G1 E46.846 F2100
G1 X116.26 Y81.17 E47.038 F1200
G1 E46.238 F2100
G0 Z0.8
G0 X114.9 Y81.95 F4800
G0 Z0.2
G1 E47.038 F2100
G1 X112.95 Y83.91 E47.13 F1200
G1 E46.33 F2100
G0 Z0.8
G0 X120.72 Y97.64 F4800
G0 Z0.2
G1 E47.13 F2100
G1 X128.64 Y89.72 E47.503 F1200
G0 X128.59 Y90.33 F4800
G1 X121.33 Y97.59 E47.844 F1200
G0 X122.07 Y97.42 F4800
G1 X128.42 Y91.07 E48.143 F1200
G0 X128.2 Y91.85 F4800
G1 X122.85 Y97.2 E48.394 F1200
G1 E47.594 F2100
G0 Z0.8
G0 X123.82 Y96.8 F4800
G0 Z0.2
G1 E48.394 F2100
G1 X127.8 Y92.82 E48.582 F1200
G1 E47.782 F2100
G0 Z0.8
G0 X126.81 Y94.37 F4800
G0 Z0.2
G1 E48.582 F2100
G1 X125.37 Y95.81 E48.649 F1200
; Layer Change GCode
; LAYER:1
; LAYER_HEIGHT:0.3
; TYPE:FILL
M400
M106 S255
G1 E47.849 F2100
G0 Z0.8
G0 X118.59 Y97.89 Z1.1 F4800
; TYPE:WALL-INNER
G0 Z0.5
G1 E48.649 F2100
G1 X117.22 Y97.56 E48.719 F2400
G1 X115.92 Y97.02 E48.79
G1 X114.71 Y96.28 E48.861
G1 X113.64 Y95.36 E48.931
G1 X112.72 Y94.29 E49.001
G1 X111.98 Y93.08 E49.072
G1 X111.44 Y91.78 E49.142
G1 X111.11 Y90.41 E49.212
G1 X111 Y89 E49.283
G1 X111.11 Y87.59 E49.354
G1 X111.44 Y86.22 E49.424
G1 X111.98 Y84.92 E49.494
G1 X112.72 Y83.71 E49.565
G1 X113.64 Y82.64 E49.635
G1 X114.71 Y81.72 E49.706
G1 X115.92 Y80.98 E49.776
G1 X117.22 Y80.44 E49.847
G1 X118.59 Y80.11 E49.917
G1 X120 Y80 E49.987
G1 X121.41 Y80.11 E50.058
G1 X122.78 Y80.44 E50.128
G1 X124.08 Y80.98 E50.199
G1 X125.29 Y81.72 E50.269
G1 X126.36 Y82.64 E50.34
G1 X127.28 Y83.71 E50.41
G1 X128.02 Y84.92 E50.481
G1 X128.56 Y86.22 E50.551
G1 X128.89 Y87.59 E50.621
G1 X129 Y89 E50.692
G1 X128.89 Y90.41 E50.762
G1 X128.56 Y91.78 E50.832
G1 X128.02 Y93.08 E50.903
G1 X127.28 Y94.29 E50.974
G1 X126.36 Y95.36 E51.044
G1 X125.29 Y96.28 E51.114
G1 X124.08 Y97.02 E51.185
G1 X122.78 Y97.56 E51.255
G1 X121.41 Y97.89 E51.325
G1 X120 Y98 E51.396
G1 X118.71 Y97.9 E51.461
G0 X118.59 Y97.89
G0 X118.53 Y98.28 F4800
G1 X117.1 Y97.94 E51.534 F2400
G1 X115.74 Y97.38 E51.607
G1 X114.47 Y96.6 E51.682
G1 X113.35 Y95.65 E51.755
G1 X112.4 Y94.53 E51.828
G1 X111.62 Y93.26 E51.902
G1 X111.06 Y91.9 E51.976
G1 X110.72 Y90.47 E52.049
G1 X110.6 Y89 E52.123
G1 X110.72 Y87.53 E52.197
G1 X111.06 Y86.1 E52.27
G1 X111.62 Y84.74 E52.343
G1 X112.4 Y83.47 E52.418
G1 X113.35 Y82.35 E52.491
G1 X114.47 Y81.4 E52.564
G1 X115.74 Y80.62 E52.638
G1 X117.1 Y80.06 E52.711
G1 X118.53 Y79.72 E52.785
G1 X120 Y79.6 E52.859
G1 X121.47 Y79.72 E52.932
G1 X122.9 Y80.06 E53.006
G1 X124.26 Y80.62 E53.079
G1 X125.53 Y81.4 E53.153
G1 X126.65 Y82.35 E53.226
G1 X127.6 Y83.47 E53.3
G1 X128.38 Y84.74 E53.374
G1 X128.94 Y86.1 E53.447
G1 X129.28 Y87.53 E53.521
G1 X129.4 Y89 E53.594
G1 X129.28 Y90.47 E53.668
G1 X128.94 Y91.9 E53.741
G1 X128.38 Y93.26 E53.815
G1 X127.6 Y94.53 E53.889
G1 X126.65 Y95.65 E53.962
G1 X125.53 Y96.6 E54.035
G1 X124.26 Y97.38 E54.11
G1 X122.9 Y97.94 E54.183
G1 X121.47 Y98.28 E54.256
G1 X120 Y98.4 E54.33
G1 X118.65 Y98.29 E54.398
G0 X118.53 Y98.28
G0 X118.47 Y98.68 F4800
; TYPE:WALL-OUTER
G1 X116.98 Y98.32 E54.474 F1500
G1 X115.55 Y97.73 E54.551
G1 X114.24 Y96.93 E54.628
G1 X113.07 Y95.93 E54.705
G1 X112.07 Y94.76 E54.781
G1 X111.27 Y93.45 E54.858
G1 X110.68 Y92.02 E54.935
G1 X110.32 Y90.53 E55.011
G1 X110.2 Y89 E55.088
G1 X110.32 Y87.47 E55.165
G1 X110.68 Y85.98 E55.241
G1 X111.27 Y84.55 E55.318
G1 X112.07 Y83.24 E55.395
G1 X113.07 Y82.07 E55.472
G1 X114.24 Y81.07 E55.548
G1 X115.55 Y80.27 E55.625
G1 X116.98 Y79.68 E55.702
G1 X118.47 Y79.32 E55.779
G1 X120 Y79.2 E55.855
G1 X121.53 Y79.32 E55.932
G1 X123.02 Y79.68 E56.009
G1 X124.45 Y80.27 E56.085
G1 X125.76 Y81.07 E56.162
G1 X126.93 Y82.07 E56.239
G1 X127.93 Y83.24 E56.316
G1 X128.73 Y84.55 E56.393
G1 X129.32 Y85.98 E56.469
G1 X129.68 Y87.47 E56.546
G1 X129.8 Y89 E56.623
G1 X129.68 Y90.53 E56.699
G1 X129.32 Y92.02 E56.776
G1 X128.73 Y93.45 E56.853
G1 X127.93 Y94.76 E56.93
G1 X126.93 Y95.93 E57.006
G1 X125.76 Y96.93 E57.083
G1 X124.45 Y97.73 E57.16
G1 X123.02 Y98.32 E57.237
G1 X121.53 Y98.68 E57.313
G1 X120 Y98.8 E57.39
G1 X118.59 Y98.69 E57.46
G0 X118.47 Y98.68
G0 X116.98 Y98.32
G0 X115.62 Y97.76
G0 X118.59 Y97.89 F4800
G0 X118.48 Y97.55
; TYPE:FILL
G1 X114.97 Y94.04 E57.709 F3600
G1 X111.45 Y90.52 E57.957
G0 X111.37 Y89.88 F4800
G1 X113.95 Y92.46 E58.139 F3600
G1 X116.54 Y95.05 E58.321
G1 X119.12 Y97.63 E58.503
G0 X119.74 Y97.67 F4800
G1 X116.93 Y94.87 E58.701 F3600
G1 X114.13 Y92.06 E58.899
G1 X111.32 Y89.26 E59.097
G0 X111.33 Y88.7 F4800
G1 X114.32 Y91.69 E59.308 F3600
G1 X117.31 Y94.68 E59.519
G1 X120.3 Y97.67 E59.73
G0 X120.82 Y97.63 F4800
G1 X117.67 Y94.48 E59.952 F3600
G1 X114.52 Y91.33 E60.175
G1 X111.37 Y88.18 E60.397
G0 X111.41 Y87.65 F4800
G1 X114.72 Y90.96 E60.631 F3600
G1 X118.04 Y94.28 E60.864
G1 X121.35 Y97.59 E61.098
G0 X121.81 Y97.48 F4800
G1 X118.38 Y94.05 E61.34 F3600
G1 X114.95 Y90.62 E61.582
G1 X111.52 Y87.19 E61.824
G0 X111.63 Y86.74 F4800
G1 X114.29 Y89.4 E62.012 F3600
G1 X116.95 Y92.06 E62.199
G1 X119.6 Y94.71 E62.387
G1 X122.26 Y97.37 E62.574
G0 X122.71 Y97.26 F4800
G1 X119.97 Y94.52 E62.768 F3600
G1 X117.23 Y91.78 E62.962
G1 X114.48 Y89.03 E63.155
G1 X111.74 Y86.29 E63.349
G0 X111.91 Y85.89 F4800
G1 X114.71 Y88.69 E63.547 F3600
G1 X117.51 Y91.49 E63.744
G1 X120.31 Y94.29 E63.942
G1 X123.11 Y97.09 E64.139
G0 X123.51 Y96.93 F4800
G1 X120.65 Y94.07 E64.341 F3600
G1 X117.79 Y91.21 E64.543
G1 X114.93 Y88.34 E64.744
G1 X112.07 Y85.48 E64.946
G0 X112.24 Y85.08 F4800
G1 X115.16 Y88 E65.152 F3600
G1 X118.08 Y90.92 E65.358
G1 X120.99 Y93.84 E65.564
G1 X123.91 Y96.76 E65.77
G0 X124.27 Y96.55 F4800
G1 X121.32 Y93.6 E65.979 F3600
G1 X118.36 Y90.64 E66.187
G1 X115.41 Y87.69 E66.396
G1 X112.45 Y84.73 E66.604
G0 X112.66 Y84.38 F4800
G1 X115.65 Y87.37 E66.815 F3600
G1 X118.64 Y90.36 E67.026
G1 X121.63 Y93.34 E67.237
G1 X124.62 Y96.33 E67.448
G0 X124.97 Y96.12 F4800
G1 X121.95 Y93.1 E67.661 F3600
G1 X118.93 Y90.08 E67.875
G1 X115.9 Y87.05 E68.088
G1 X112.88 Y84.03 E68.301
G0 X113.12 Y83.7 F4800
G1 X116.16 Y86.75 E68.516 F3600
G1 X119.21 Y89.79 E68.731
G1 X122.25 Y92.84 E68.945
G1 X125.29 Y95.88 E69.16
G0 X125.6 Y95.62 F4800
G1 X122.55 Y92.57 E69.376 F3600
G1 X119.49 Y89.51 E69.591
G1 X116.44 Y86.46 E69.807
G1 X113.38 Y83.4 E70.022
G0 X113.64 Y83.09 F4800
G1 X116.71 Y86.16 E70.238 F3600
G1 X119.77 Y89.23 E70.455
G1 X122.84 Y92.29 E70.671
G1 X125.9 Y95.36 E70.887
G0 X126.2 Y95.09 F4800
G1 X123.13 Y92.02 E71.104 F3600
G1 X120.06 Y88.95 E71.321
G1 X116.98 Y85.87 E71.537
G1 X113.91 Y82.8 E71.754
G0 X114.22 Y82.54 F4800
G1 X117.28 Y85.6 E71.97 F3600
G1 X120.34 Y88.66 E72.186
G1 X123.4 Y91.72 E72.402
G1 X126.46 Y94.78 E72.618
G0 X126.72 Y94.48 F4800
G1 X123.67 Y91.43 E72.833 F3600
G1 X120.62 Y88.38 E73.049
G1 X117.57 Y85.33 E73.264
G1 X114.52 Y82.28 E73.479
G0 X114.83 Y82.02 F4800
G1 X117.87 Y85.06 E73.694 F3600
G1 X120.91 Y88.1 E73.908
G1 X123.94 Y91.13 E74.123
G1 X126.98 Y94.17 E74.337
G0 X127.21 Y93.83 F4800
G1 X124.2 Y90.82 E74.549 F3600
G1 X121.19 Y87.81 E74.762
G1 X118.18 Y84.8 E74.974
G1 X115.17 Y81.79 E75.186
G0 X115.52 Y81.58 F4800
G1 X118.5 Y84.56 E75.396 F3600
G1 X121.47 Y87.53 E75.606
G1 X124.45 Y90.51 E75.816
G1 X127.42 Y93.48 E76.026
G0 X127.64 Y93.13 F4800
G1 X124.7 Y90.19 E76.234 F3600
G1 X121.76 Y87.25 E76.441
G1 X118.81 Y84.3 E76.649
G1 X115.87 Y81.36 E76.856
G0 X116.24 Y81.17 F4800
G1 X119.14 Y84.07 E77.06 F3600
G1 X122.04 Y86.96 E77.265
G1 X124.93 Y89.86 E77.469
G1 X127.83 Y92.75 E77.673
G0 X127.99 Y92.35 F4800
G1 X125.16 Y89.52 E77.873 F3600
G1 X122.32 Y86.68 E78.074
G1 X119.49 Y83.85 E78.274
G1 X116.65 Y81.01 E78.474
G0 X117.05 Y80.84 F4800
G1 X119.83 Y83.62 E78.67 F3600
G1 X122.61 Y86.4 E78.866
G1 X125.38 Y89.17 E79.062
G1 X128.16 Y91.95 E79.258
G0 X128.3 Y91.53 F4800
G1 X125.59 Y88.82 E79.449 F3600
G1 X122.88 Y86.11 E79.64
G1 X120.17 Y83.4 E79.831
G1 X117.46 Y80.69 E80.022
G0 X117.92 Y80.58 F4800
G1 X121.42 Y84.08 E80.269 F3600
G1 X124.91 Y87.58 E80.516
G1 X128.41 Y91.08 E80.763
G0 X128.52 Y90.62 F4800
G1 X125.14 Y87.24 E81.002 F3600
G1 X121.75 Y83.85 E81.24
G1 X118.37 Y80.47 E81.479
G0 X118.86 Y80.39 F4800
G1 X122.11 Y83.64 E81.708 F3600
G1 X125.35 Y86.89 E81.938
G1 X128.6 Y90.14 E82.167
G0 X128.65 Y89.61 F4800
G1 X125.56 Y86.52 E82.385 F3600
G1 X122.47 Y83.44 E82.602
G1 X119.38 Y80.35 E82.82
G0 X119.91 Y80.31 F4800
G1 X122.84 Y83.24 E83.026 F3600
G1 X125.76 Y86.16 E83.233
G1 X128.69 Y89.09 E83.439
G0 X128.65 Y88.49 F4800
G1 X125.94 Y85.77 E83.631 F3600
G1 X123.22 Y83.06 E83.822
G1 X120.51 Y80.34 E84.014
G0 X121.12 Y80.39 F4800
G1 X123.62 Y82.89 E84.19 F3600
G1 X126.11 Y85.38 E84.366
G1 X128.61 Y87.88 E84.542
G0 X128.48 Y87.18 F4800
G1 X125.15 Y83.85 E84.777 F3600
G1 X121.82 Y80.52 E85.012
G0 X122.56 Y80.7 F4800
G1 X125.43 Y83.57 E85.215 F3600
G1 X128.3 Y86.44 E85.417
G0 X127.94 Y85.51 F4800
G1 X125.72 Y83.29 E85.574 F3600
G1 X123.49 Y81.06 E85.731
G1 E84.931 F2100
G0 Z1.1
G0 X124.71 Y81.72 F4800
G0 Z0.5
G1 E85.731 F2100
G1 X127.28 Y84.28 E85.912 F3600
G1 E85.112 F2100
G0 Z1.1
G0 X124.9 Y87.55 F4800
G0 X122.51 Y90.83
G0 X120.13 Y94.1
G0 X117.74 Y97.37
G0 Z0.5
G1 E85.912 F2100
G1 X114.69 Y94.32 E86.128 F3600
G1 X111.63 Y91.26 E86.343
G0 X111.9 Y92.1 F4800
G1 X114.4 Y94.6 E86.519 F3600
G1 X116.9 Y97.1 E86.695
G1 E85.895 F2100
G0 Z1.1
G0 X115.87 Y96.64 F4800
G0 Z0.5
G1 E86.695 F2100
G1 X112.36 Y93.13 E86.943 F3600
; Layer Change GCode
; LAYER:2
; LAYER_HEIGHT:0.3
; TYPE:FILL
G1 E86.143 F2100
G0 Z1.1
G0 X116.89 Y95.51 Z1.25 F4800
G0 X121.41 Y97.89 Z1.4
; TYPE:WALL-INNER
G0 Z0.8
G1 E86.943 F2100
G1 X120 Y98 E87.013 F2400
G1 X118.59 Y97.89 E87.084
G1 X117.22 Y97.56 E87.154
G1 X115.92 Y97.02 E87.224
G1 X114.71 Y96.28 E87.295
G1 X113.64 Y95.36 E87.365
G1 X112.72 Y94.29 E87.436
G1 X111.98 Y93.08 E87.506
G1 X111.44 Y91.78 E87.577
G1 X111.11 Y90.41 E87.647
G1 X111 Y89 E87.718
G1 X111.11 Y87.59 E87.788
G1 X111.44 Y86.22 E87.858
G1 X111.98 Y84.92 E87.929
G1 X112.72 Y83.71 E87.999
G1 X113.64 Y82.64 E88.07
G1 X114.71 Y81.72 E88.14
G1 X115.92 Y80.98 E88.211
G1 X117.22 Y80.44 E88.281
G1 X118.59 Y80.11 E88.351
G1 X120 Y80 E88.422
G1 X121.41 Y80.11 E88.493
G1 X122.78 Y80.44 E88.563
G1 X124.08 Y80.98 E88.633
G1 X125.29 Y81.72 E88.704
G1 X126.36 Y82.64 E88.774
G1 X127.28 Y83.71 E88.844
G1 X128.02 Y84.92 E88.915
G1 X128.56 Y86.22 E88.986
G1 X128.89 Y87.59 E89.056
G1 X129 Y89 E89.126
G1 X128.89 Y90.41 E89.197
G1 X128.56 Y91.78 E89.267
G1 X128.02 Y93.08 E89.337
G1 X127.28 Y94.29 E89.408
G1 X126.36 Y95.36 E89.478
G1 X125.29 Y96.28 E89.549
G1 X124.08 Y97.02 E89.619
G1 X122.78 Y97.56 E89.69
G1 X121.53 Y97.86 E89.754
G0 X121.41 Y97.89
G0 X121.47 Y98.28 F4800
G1 X120 Y98.4 E89.828 F2400
G1 X118.53 Y98.28 E89.901
G1 X117.1 Y97.94 E89.975
G1 X115.74 Y97.38 E90.048
G1 X114.47 Y96.6 E90.122
G1 X113.35 Y95.65 E90.196
G1 X112.4 Y94.53 E90.269
G1 X111.62 Y93.26 E90.343
G1 X111.06 Y91.9 E90.416
G1 X110.72 Y90.47 E90.49
G1 X110.6 Y89 E90.563
G1 X110.72 Y87.53 E90.637
G1 X111.06 Y86.1 E90.711
G1 X111.62 Y84.74 E90.784
G1 X112.4 Y83.47 E90.858
G1 X113.35 Y82.35 E90.931
G1 X114.47 Y81.4 E91.004
G1 X115.74 Y80.62 E91.079
G1 X117.1 Y80.06 E91.152
G1 X118.53 Y79.72 E91.225
G1 X120 Y79.6 E91.299
G1 X121.47 Y79.72 E91.373
G1 X122.9 Y80.06 E91.446
G1 X124.26 Y80.62 E91.52
G1 X125.53 Y81.4 E91.594
G1 X126.65 Y82.35 E91.667
G1 X127.6 Y83.47 E91.74
G1 X128.38 Y84.74 E91.815
G1 X128.94 Y86.1 E91.888
G1 X129.28 Y87.53 E91.961
G1 X129.4 Y89 E92.035
G1 X129.28 Y90.47 E92.109
G1 X128.94 Y91.9 E92.182
G1 X128.38 Y93.26 E92.255
G1 X127.6 Y94.53 E92.33
G1 X126.65 Y95.65 E92.403
G1 X125.53 Y96.6 E92.476
G1 X124.26 Y97.38 E92.55
G1 X122.9 Y97.94 E92.624
G1 X121.59 Y98.25 E92.691
G0 X121.47 Y98.28
G0 X121.53 Y98.68 F4800
; TYPE:WALL-OUTER
G1 X120 Y98.8 E92.768 F1500
G1 X118.47 Y98.68 E92.845
G1 X116.98 Y98.32 E92.921
G1 X115.55 Y97.73 E92.998
G1 X114.24 Y96.93 E93.075
G1 X113.07 Y95.93 E93.151
G1 X112.07 Y94.76 E93.228
G1 X111.27 Y93.45 E93.305
G1 X110.68 Y92.02 E93.382
G1 X110.32 Y90.53 E93.458
G1 X110.2 Y89 E93.535
G1 X110.32 Y87.47 E93.612
G1 X110.68 Y85.98 E93.688
G1 X111.27 Y84.55 E93.765
G1 X112.07 Y83.24 E93.842
G1 X113.07 Y82.07 E93.919
G1 X114.24 Y81.07 E93.995
G1 X115.55 Y80.27 E94.072
G1 X116.98 Y79.68 E94.149
G1 X118.47 Y79.32 E94.225
G1 X120 Y79.2 E94.302
G1 X121.53 Y79.32 E94.379
G1 X123.02 Y79.68 E94.455
G1 X124.45 Y80.27 E94.532
G1 X125.76 Y81.07 E94.609
G1 X126.93 Y82.07 E94.686
G1 X127.93 Y83.24 E94.762
G1 X128.73 Y84.55 E94.839
G1 X129.32 Y85.98 E94.916
G1 X129.68 Y87.47 E94.993
G1 X129.8 Y89 E95.069
G1 X129.68 Y90.53 E95.146
G1 X129.32 Y92.02 E95.222
G1 X128.73 Y93.45 E95.299
G1 X127.93 Y94.76 E95.376
G1 X126.93 Y95.93 E95.453
G1 X125.76 Y96.93 E95.529
G1 X124.45 Y97.73 E95.606
G1 X123.02 Y98.32 E95.683
G1 X121.65 Y98.65 E95.754
G0 X121.53 Y98.68
G0 X120 Y98.8
G0 X118.54 Y98.68
G0 X121.41 Y97.89 F4800
G0 X121.33 Y97.59
; TYPE:FILL
G1 X123.75 Y95.17 E95.925 F3600
G1 X126.17 Y92.75 E96.095
G1 X128.59 Y90.33 E96.266
G0 X128.64 Y89.72 F4800
G1 X126 Y92.36 E96.452 F3600
G1 X123.36 Y95 E96.639
G1 X120.72 Y97.64 E96.825
G0 X120.1 Y97.69 F4800
G1 X122.96 Y94.83 E97.027 F3600
G1 X125.83 Y91.96 E97.228
G1 X128.69 Y89.1 E97.43
G0 X128.66 Y88.56 F4800
G1 X125.63 Y91.59 E97.644 F3600
G1 X122.59 Y94.63 E97.858
G1 X119.56 Y97.66 E98.072
G0 X119.04 Y97.62 F4800
G1 X122.23 Y94.43 E98.297 F3600
G1 X125.43 Y91.23 E98.523
G1 X128.62 Y88.04 E98.748
G0 X128.56 Y87.53 F4800
G1 X125.22 Y90.87 E98.984 F3600
G1 X121.87 Y94.22 E99.22
G1 X118.53 Y97.56 E99.456
G0 X118.07 Y97.45 F4800
G1 X121.53 Y93.99 E99.7 F3600
G1 X124.99 Y90.53 E99.944
G1 X128.45 Y87.07 E100.188
G0 X128.34 Y86.62 F4800
G1 X125.66 Y89.3 E100.377 F3600
G1 X122.98 Y91.98 E100.567
G1 X120.3 Y94.66 E100.756
G1 X117.62 Y97.34 E100.945
G0 X117.18 Y97.21 F4800
G1 X119.94 Y94.45 E101.14 F3600
G1 X122.7 Y91.7 E101.334
G1 X125.45 Y88.94 E101.529
G1 X128.21 Y86.18 E101.723
G0 X128.05 Y85.78 F4800
G1 X125.23 Y88.6 E101.922 F3600
G1 X122.42 Y91.42 E102.121
G1 X119.6 Y94.23 E102.319
G1 X116.78 Y97.05 E102.518
G0 X116.38 Y96.88 F4800
G1 X119.26 Y94.01 E102.721 F3600
G1 X122.13 Y91.13 E102.924
G1 X125.01 Y88.26 E103.127
G1 X127.88 Y85.38 E103.33
G0 X127.71 Y84.99 F4800
G1 X124.78 Y87.92 E103.537 F3600
G1 X121.85 Y90.85 E103.744
G1 X118.92 Y93.78 E103.95
G1 X115.99 Y96.71 E104.157
G0 X115.64 Y96.49 F4800
G1 X118.6 Y93.53 E104.366 F3600
G1 X121.57 Y90.57 E104.575
G1 X124.53 Y87.6 E104.784
G1 X127.49 Y84.64 E104.993
G0 X127.28 Y84.29 F4800
G1 X124.28 Y87.29 E105.205 F3600
G1 X121.29 Y90.29 E105.416
G1 X118.29 Y93.28 E105.628
G1 X115.29 Y96.28 E105.839
G0 X114.94 Y96.06 F4800
G1 X117.97 Y93.03 E106.053 F3600
G1 X121 Y90 E106.267
G1 X124.03 Y86.97 E106.481
G1 X127.06 Y83.94 E106.695
G0 X126.81 Y83.63 F4800
G1 X123.76 Y86.68 E106.91 F3600
G1 X120.72 Y89.72 E107.125
G1 X117.67 Y92.77 E107.339
G1 X114.62 Y95.81 E107.554
G0 X114.32 Y95.55 F4800
G1 X117.38 Y92.49 E107.77 F3600
G1 X120.44 Y89.44 E107.986
G1 X123.49 Y86.38 E108.201
G1 X126.55 Y83.32 E108.417
G0 X126.29 Y83.01 F4800
G1 X123.22 Y86.08 E108.634 F3600
G1 X120.15 Y89.15 E108.85
G1 X117.08 Y92.22 E109.067
G1 X114.01 Y95.29 E109.283
G0 X113.73 Y95.01 F4800
G1 X116.8 Y91.94 E109.5 F3600
G1 X119.87 Y88.87 E109.717
G1 X122.94 Y85.8 E109.933
G1 X126.01 Y82.73 E110.15
G0 X125.7 Y82.47 F4800
G1 X122.64 Y85.53 E110.366 F3600
G1 X119.59 Y88.59 E110.582
G1 X116.53 Y91.64 E110.797
G1 X113.47 Y94.7 E111.013
G0 X113.21 Y94.4 F4800
G1 X116.26 Y91.35 E111.228 F3600
G1 X119.31 Y88.31 E111.443
G1 X122.35 Y85.26 E111.658
G1 X125.4 Y82.21 E111.873
G0 X125.09 Y81.95 F4800
G1 X122.06 Y84.99 E112.087 F3600
G1 X119.02 Y88.02 E112.301
G1 X115.99 Y91.06 E112.515
G1 X112.95 Y94.09 E112.729
G0 X112.74 Y93.74 F4800
G1 X115.74 Y90.74 E112.941 F3600
G1 X118.74 Y87.74 E113.153
G1 X121.74 Y84.74 E113.364
G1 X124.74 Y81.74 E113.576
G0 X124.39 Y81.52 F4800
G1 X121.42 Y84.49 E113.785 F3600
G1 X118.46 Y87.46 E113.995
G1 X115.49 Y90.42 E114.204
G1 X112.52 Y93.39 E114.413
G0 X112.31 Y93.04 F4800
G1 X115.24 Y90.11 E114.62 F3600
G1 X118.18 Y87.18 E114.827
G1 X121.11 Y84.24 E115.034
G1 X124.04 Y81.31 E115.241
G0 X123.65 Y81.13 F4800
G1 X120.77 Y84.01 E115.444 F3600
G1 X117.89 Y86.89 E115.648
G1 X115.01 Y89.77 E115.851
G1 X112.13 Y92.65 E116.054
G0 X111.96 Y92.25 F4800
G1 X114.78 Y89.43 E116.253 F3600
G1 X117.61 Y86.61 E116.452
G1 X120.43 Y83.78 E116.651
G1 X123.25 Y80.96 E116.85
G0 X122.85 Y80.8 F4800
G1 X120.09 Y83.56 E117.045 F3600
G1 X117.33 Y86.33 E117.24
G1 X114.56 Y89.09 E117.435
G1 X111.8 Y91.85 E117.63
G0 X111.66 Y91.42 F4800
G1 X114.35 Y88.73 E117.82 F3600
G1 X117.04 Y86.04 E118.009
G1 X119.73 Y83.35 E118.199
G1 X122.42 Y80.66 E118.388
G0 X121.96 Y80.56 F4800
G1 X118.49 Y84.03 E118.633 F3600
G1 X115.02 Y87.49 E118.878
G1 X111.55 Y90.96 E119.123
G0 X111.44 Y90.5 F4800
G1 X114.79 Y87.15 E119.359 F3600
G1 X118.15 Y83.8 E119.596
G1 X121.5 Y80.45 E119.832
G0 X121 Y80.38 F4800
G1 X117.79 Y83.59 E120.058 F3600
G1 X114.59 Y86.79 E120.285
G1 X111.38 Y90 E120.511
G0 X111.34 Y89.48 F4800
G1 X114.39 Y86.43 E120.726 F3600
G1 X117.43 Y83.39 E120.941
G1 X120.48 Y80.34 E121.156
G0 X119.94 Y80.31 F4800
G1 X117.06 Y83.19 E121.359 F3600
G1 X114.19 Y86.06 E121.562
G1 X111.31 Y88.94 E121.765
G0 X111.36 Y88.33 F4800
G1 X114.02 Y85.67 E121.953 F3600
G1 X116.67 Y83.02 E122.14
G1 X119.33 Y80.36 E122.328
G0 X118.72 Y80.41 F4800
G1 X116.28 Y82.85 E122.5 F3600
G1 X113.84 Y85.28 E122.671
G1 X111.4 Y87.72 E122.843
G0 X111.57 Y86.99 F4800
G1 X114.78 Y83.78 E123.07 F3600
G1 X117.99 Y80.57 E123.297
G0 X117.22 Y80.77 F4800
G1 X114.5 Y83.5 E123.49 F3600
G1 X111.77 Y86.22 E123.682
G1 E122.882 F2100
G0 Z1.4
G0 X112.17 Y85.26 F4800
G0 Z0.8
G1 E123.682 F2100
G1 X116.26 Y81.17 E123.97 F3600
G1 E123.17 F2100
G0 Z1.4
G0 X114.9 Y81.95 F4800
G0 Z0.8
G1 E123.97 F2100
G1 X112.95 Y83.91 E124.108 F3600
G1 E123.308 F2100
G0 Z1.4
G0 X115.23 Y87.29 F4800
G0 X117.51 Y90.67
G0 X119.79 Y94.04
G0 X122.07 Y97.42
G0 Z0.8
G1 E124.108 F2100
G1 X125.25 Y94.25 E124.332 F3600
G1 X128.42 Y91.07 E124.556
G0 X128.2 Y91.85 F4800
G1 X125.53 Y94.53 E124.745 F3600
G1 X122.85 Y97.2 E124.933
G1 E124.133 F2100
G0 Z1.4
G0 X123.82 Y96.8 F4800
G0 Z0.8
G1 E124.933 F2100
G1 X127.8 Y92.82 E125.214 F3600
G1 E124.414 F2100
G0 Z1.4
G0 X126.81 Y94.37 F4800
G0 Z0.8
G1 E125.214 F2100
G1 X125.37 Y95.81 E125.316 F3600
; Layer Change GCode
; LAYER:3
; LAYER_HEIGHT:0.3
; TYPE:FILL
G1 E124.516 F2100
G0 Z1.4
G0 X120 Y98 Z1.7 F4800
; TYPE:WALL-INNER
G0 Z1.1
G1 E125.316 F2100
G1 X118.59 Y97.89 E125.386 F2400
G1 X117.22 Y97.56 E125.456
G1 X115.92 Y97.02 E125.527
G1 X114.71 Y96.28 E125.597
G1 X113.64 Y95.36 E125.668
G1 X112.72 Y94.29 E125.738
G1 X111.98 Y93.08 E125.809
G1 X111.44 Y91.78 E125.879
G1 X111.11 Y90.41 E125.949
G1 X111 Y89 E126.02
G1 X111.11 Y87.59 E126.091
G1 X111.44 Y86.22 E126.161
G1 X111.98 Y84.92 E126.231
G1 X112.72 Y83.71 E126.302
G1 X113.64 Y82.64 E126.372
G1 X114.71 Y81.72 E126.443
G1 X115.92 Y80.98 E126.513
G1 X117.22 Y80.44 E126.584
G1 X118.59 Y80.11 E126.654
G1 X120 Y80 E126.724
G1 X121.41 Y80.11 E126.795
G1 X122.78 Y80.44 E126.865
G1 X124.08 Y80.98 E126.936
G1 X125.29 Y81.72 E127.006
G1 X126.36 Y82.64 E127.077
G1 X127.28 Y83.71 E127.147
G1 X128.02 Y84.92 E127.217
G1 X128.56 Y86.22 E127.288
G1 X128.89 Y87.59 E127.358
G1 X129 Y89 E127.429
G1 X128.89 Y90.41 E127.499
G1 X128.56 Y91.78 E127.569
G1 X128.02 Y93.08 E127.64
G1 X127.28 Y94.29 E127.711
G1 X126.36 Y95.36 E127.781
G1 X125.29 Y96.28 E127.851
G1 X124.08 Y97.02 E127.922
G1 X122.78 Y97.56 E127.992
G1 X121.41 Y97.89 E128.062
G1 X120.12 Y97.99 E128.127
G0 X120 Y98
G0 Y98.4 F4800
G1 X118.53 Y98.28 E128.201 F2400
G1 X117.1 Y97.94 E128.274
G1 X115.74 Y97.38 E128.347
G1 X114.47 Y96.6 E128.422
G1 X113.35 Y95.65 E128.495
G1 X112.4 Y94.53 E128.568
G1 X111.62 Y93.26 E128.642
G1 X111.06 Y91.9 E128.716
G1 X110.72 Y90.47 E128.789
G1 X110.6 Y89 E128.863
G1 X110.72 Y87.53 E128.936
G1 X111.06 Y86.1 E129.01
G1 X111.62 Y84.74 E129.083
G1 X112.4 Y83.47 E129.157
G1 X113.35 Y82.35 E129.231
G1 X114.47 Y81.4 E129.304
G1 X115.74 Y80.62 E129.378
G1 X117.1 Y80.06 E129.451
G1 X118.53 Y79.72 E129.525
G1 X120 Y79.6 E129.599
G1 X121.47 Y79.72 E129.672
G1 X122.9 Y80.06 E129.746
G1 X124.26 Y80.62 E129.819
G1 X125.53 Y81.4 E129.893
G1 X126.65 Y82.35 E129.966
G1 X127.6 Y83.47 E130.04
G1 X128.38 Y84.74 E130.114
G1 X128.94 Y86.1 E130.187
G1 X129.28 Y87.53 E130.261
G1 X129.4 Y89 E130.334
G1 X129.28 Y90.47 E130.408
G1 X128.94 Y91.9 E130.481
G1 X128.38 Y93.26 E130.555
G1 X127.6 Y94.53 E130.629
G1 X126.65 Y95.65 E130.702
G1 X125.53 Y96.6 E130.775
G1 X124.26 Y97.38 E130.85
G1 X122.9 Y97.94 E130.923
G1 X121.47 Y98.28 E130.996
G1 X120.12 Y98.39 E131.064
G0 X120 Y98.4
G0 Y98.8 F4800
; TYPE:WALL-OUTER
G1 X118.47 Y98.68 E131.141 F1500
G1 X116.98 Y98.32 E131.217
G1 X115.55 Y97.73 E131.294
G1 X114.24 Y96.93 E131.371
G1 X113.07 Y95.93 E131.448
G1 X112.07 Y94.76 E131.524
G1 X111.27 Y93.45 E131.601
G1 X110.68 Y92.02 E131.678
G1 X110.32 Y90.53 E131.755
G1 X110.2 Y89 E131.831
G1 X110.32 Y87.47 E131.908
G1 X110.68 Y85.98 E131.984
G1 X111.27 Y84.55 E132.061
G1 X112.07 Y83.24 E132.138
G1 X113.07 Y82.07 E132.215
G1 X114.24 Y81.07 E132.291
G1 X115.55 Y80.27 E132.368
G1 X116.98 Y79.68 E132.445
G1 X118.47 Y79.32 E132.522
G1 X120 Y79.2 E132.598
G1 X121.53 Y79.32 E132.675
G1 X123.02 Y79.68 E132.752
G1 X124.45 Y80.27 E132.828
G1 X125.76 Y81.07 E132.905
G1 X126.93 Y82.07 E132.982
G1 X127.93 Y83.24 E133.059
G1 X128.73 Y84.55 E133.136
G1 X129.32 Y85.98 E133.212
G1 X129.68 Y87.47 E133.289
G1 X129.8 Y89 E133.366
G1 X129.68 Y90.53 E133.442
G1 X129.32 Y92.02 E133.519
G1 X128.73 Y93.45 E133.596
G1 X127.93 Y94.76 E133.673
G1 X126.93 Y95.93 E133.749
G1 X125.76 Y96.93 E133.826
G1 X124.45 Y97.73 E133.903
G1 X123.02 Y98.32 E133.98
G1 X121.53 Y98.68 E134.056
G1 X120.12 Y98.79 E134.127
G0 X120 Y98.8
G0 X118.47 Y98.68
G0 X117.04 Y98.34
G0 X120 Y98 F4800
G0 X119.74 Y97.67
; TYPE:TOP-FILL
G1 X116.93 Y94.87 E134.325 F2100
G1 X114.13 Y92.06 E134.522
G1 X111.32 Y89.26 E134.72
G0 X111.33 Y88.7 F4800
G1 X114.32 Y91.69 E134.931 F2100
G1 X117.31 Y94.68 E135.142
G1 X120.3 Y97.67 E135.353
G0 X120.82 Y97.63 F4800
G1 X117.67 Y94.48 E135.575 F2100
G1 X114.52 Y91.33 E135.798
G1 X111.37 Y88.18 E136.02
G0 X111.41 Y87.65 F4800
G1 X113.45 Y89.69 E136.164 F2100
G1 X115.48 Y91.72 E136.308
G0 X115.48 Y91.72 F4800
G1 X118.08 Y94.32 E136.491 F2100
G0 X118.08 Y94.32 F4800
G1 X121.35 Y97.59 E136.722 F2100
G0 X121.81 Y97.48 F4800
G1 X118.97 Y94.64 E136.922 F2100
G0 X118.97 Y94.64 F4800
G1 X117.06 Y92.74 E137.057 F2100
G1 X115.15 Y90.83 E137.191
G0 X115.16 Y90.83 F4800
G1 X113.34 Y89.01 E137.32 F2100
G1 X111.52 Y87.19 E137.448
G0 X111.63 Y86.74 F4800
G1 X115.01 Y90.12 E137.687 F2100
G0 X115 Y90.11 F4800
G1 X117.34 Y92.45 E137.852 F2100
G1 X119.68 Y94.79 E138.017
G0 X119.68 Y94.79 F4800
G1 X122.26 Y97.37 E138.199 F2100
G0 X122.71 Y97.26 F4800
G1 X120.3 Y94.84 E138.369 F2100
G0 X120.3 Y94.84 F4800
G1 X117.63 Y92.17 E138.558 F2100
G1 X114.96 Y89.5 E138.746
G0 X114.96 Y89.5 F4800
G1 X111.74 Y86.29 E138.973 F2100
G0 X111.91 Y85.89 F4800
G1 X114.98 Y88.96 E139.19 F2100
G0 X114.98 Y88.96 F4800
G1 X117.91 Y91.89 E139.397 F2100
G1 X120.84 Y94.82 E139.604
G0 X120.84 Y94.81 F4800
G1 X123.11 Y97.09 E139.764 F2100
G0 X123.51 Y96.93 F4800
G1 X121.35 Y94.76 E139.917 F2100
G1 X118.2 Y91.61 E140.14
G1 X115.04 Y88.45 E140.362
G0 X115.04 F4800
G1 X112.07 Y85.48 E140.571 F2100
G0 X112.24 Y85.08 F4800
G1 X115.15 Y88 E140.777 F2100
G1 X118.48 Y91.33 E141.012
G1 X121.8 Y94.65 E141.246
G1 X123.91 Y96.76 E141.395
G0 X124.27 Y96.55 F4800
G1 X122.24 Y94.52 E141.539 F2100
G1 X118.76 Y91.04 E141.784
G1 X115.28 Y87.56 E142.029
G0 X115.28 Y87.56 F4800
G1 X112.45 Y84.73 E142.229 F2100
G0 X112.66 Y84.38 F4800
G1 X115.45 Y87.16 E142.426 F2100
G0 X115.44 Y87.16 F4800
G1 X117.84 Y89.56 E142.595 F2100
G1 X120.24 Y91.95 E142.764
G1 X122.64 Y94.35 E142.933
G0 Y94.35 F4800
G1 X124.62 Y96.33 E143.073 F2100
G0 X124.97 Y96.12 F4800
G1 X123.02 Y94.17 E143.211 F2100
G0 X123.02 Y94.17 F4800
G1 X120.56 Y91.71 E143.385 F2100
G1 X118.09 Y89.24 E143.558
G1 X115.63 Y86.78 E143.732
G0 X115.63 Y86.78 F4800
G1 X112.88 Y84.03 E143.926 F2100
G0 X113.12 Y83.7 F4800
G1 X115.85 Y86.43 E144.119 F2100
G0 X115.85 Y86.43 F4800
G1 X118.36 Y88.94 E144.296 F2100
G1 X120.86 Y91.44 E144.472
G1 X123.37 Y93.95 E144.649
G0 X123.37 Y93.95 F4800
G1 X125.29 Y95.88 E144.785 F2100
G0 X125.6 Y95.62 F4800
G1 X123.7 Y93.72 E144.919 F2100
G0 X123.7 Y93.72 F4800
G1 X121.16 Y91.18 E145.098 F2100
G1 X118.62 Y88.63 E145.278
G1 X116.08 Y86.09 E145.457
G0 X116.08 Y86.1 F4800
G1 X113.38 Y83.4 E145.648 F2100
G0 X113.64 Y83.09 F4800
G1 X116.34 Y85.79 E145.838 F2100
G0 X116.34 Y85.79 F4800
G1 X118.9 Y88.35 E146.018 F2100
G1 X121.45 Y90.9 E146.199
G1 X124.01 Y93.46 E146.379
G0 X124.01 Y93.46 F4800
G1 X125.9 Y95.36 E146.513 F2100
G0 X126.2 Y95.09 F4800
G1 X124.3 Y93.19 E146.647 F2100
G0 X124.31 Y93.19 F4800
G1 X121.74 Y90.62 E146.828 F2100
G1 X119.18 Y88.06 E147.009
G1 X116.61 Y85.49 E147.19
G0 X116.61 Y85.49 F4800
G1 X113.91 Y82.8 E147.381 F2100
G0 X114.22 Y82.54 F4800
G1 X116.91 Y85.23 E147.571 F2100
G0 X116.91 Y85.23 F4800
G1 X119.46 Y87.78 E147.751 F2100
G1 X122.02 Y90.34 E147.931
G1 X124.57 Y92.89 E148.111
G0 X124.56 Y92.89 F4800
G1 X126.46 Y94.78 E148.245 F2100
G0 X126.72 Y94.48 F4800
G1 X124.82 Y92.58 E148.379 F2100
G0 X124.82 Y92.58 F4800
G1 X122.29 Y90.05 E148.558 F2100
G1 X119.75 Y87.51 E148.736
G1 X117.22 Y84.98 E148.915
G0 X117.22 Y84.98 F4800
G1 X114.52 Y82.28 E149.106 F2100
G0 X114.83 Y82.02 F4800
G1 X117.57 Y84.76 E149.3 F2100
G0 X117.57 Y84.76 F4800
G1 X120.06 Y87.25 E149.476 F2100
G1 X122.55 Y89.74 E149.651
G1 X125.04 Y92.23 E149.827
G0 X125.04 Y92.23 F4800
G1 X126.98 Y94.17 E149.964 F2100
G0 X127.21 Y93.83 F4800
G1 X125.25 Y91.88 E150.102 F2100
G0 X125.25 F4800
G1 X122.81 Y89.43 E150.274 F2100
G1 X120.36 Y86.99 E150.447
G1 X117.92 Y84.54 E150.619
G0 X117.92 Y84.55 F4800
G1 X115.17 Y81.79 E150.813 F2100
G0 X115.52 Y81.58 F4800
G1 X118.32 Y84.38 E151.011 F2100
G1 X120.69 Y86.75 E151.178
G1 X123.05 Y89.11 E151.345
G1 X125.42 Y91.48 E151.512
G1 X127.42 Y93.48 E151.653
G0 X127.64 Y93.13 F4800
G1 X125.58 Y91.08 E151.798 F2100
G1 X122.15 Y87.65 E152.04
G1 X118.72 Y84.21 E152.282
G0 Y84.22 F4800
G1 X115.87 Y81.36 E152.483 F2100
G0 X116.24 Y81.17 F4800
G1 X119.18 Y84.11 E152.69 F2100
G0 Y84.1 F4800
G1 X122.44 Y87.36 E152.92 F2100
G1 X125.69 Y90.62 E153.15
G1 X127.83 Y92.75 E153.3
G0 X127.99 Y92.35 F4800
G1 X125.79 Y90.15 E153.456 F2100
G0 X125.79 Y90.15 F4800
G1 X122.72 Y87.08 E153.673 F2100
G1 X119.65 Y84.01 E153.889
G0 X119.65 Y84.01 F4800
G1 X116.65 Y81.01 E154.101 F2100
G0 X117.05 Y80.84 F4800
G1 X120.17 Y83.97 E154.322 F2100
G0 X120.17 Y83.97 F4800
G1 X123 Y86.8 E154.522 F2100
G1 X125.83 Y89.63 E154.721
G0 X125.83 Y89.63 F4800
G1 X128.16 Y91.95 E154.885 F2100
G0 X128.3 Y91.53 F4800
G1 X125.82 Y89.05 E155.061 F2100
G0 X125.82 Y89.05 F4800
G1 X123.28 Y86.52 E155.24 F2100
G1 X120.74 Y83.98 E155.419
G0 X120.75 Y83.98 F4800
G1 X117.46 Y80.69 E155.651 F2100
G0 X117.92 Y80.58 F4800
G1 X121.38 Y84.05 E155.895 F2100
G0 X121.38 F4800
G1 X123.57 Y86.24 E156.049 F2100
G1 X125.75 Y88.42 E156.203
G0 X125.75 Y88.41 F4800
G1 X128.41 Y91.08 E156.391 F2100
G0 X128.52 Y90.62 F4800
G1 X125.56 Y87.66 E156.601 F2100
G0 X125.56 Y87.66 F4800
G1 X122.14 Y84.24 E156.842 F2100
G1 X120.26 Y82.36 E156.975
G1 X118.37 Y80.47 E157.107
G0 X118.86 Y80.39 F4800
G1 X121.05 Y82.58 E157.262 F2100
G1 X123.23 Y84.76 E157.416
G0 X123.22 Y84.76 F4800
G1 X125.04 Y86.57 E157.544 F2100
G0 X125.04 Y86.57 F4800
G1 X126.82 Y88.36 E157.67 F2100
G1 X128.6 Y90.14 E157.796
G0 X128.65 Y89.61 F4800
G1 X125.56 Y86.52 E158.014 F2100
G1 X122.47 Y83.44 E158.231
G1 X119.38 Y80.35 E158.449
G0 X119.91 Y80.31 F4800
G1 X122.84 Y83.24 E158.655 F2100
G1 X125.76 Y86.16 E158.862
G1 X128.69 Y89.09 E159.068
G0 X128.65 Y88.49 F4800
G1 X125.94 Y85.77 E159.26 F2100
G1 X123.22 Y83.06 E159.451
G1 X120.51 Y80.34 E159.643
G0 X121.12 Y80.39 F4800
G1 X123.62 Y82.89 E159.819 F2100
G1 X126.11 Y85.38 E159.995
G1 X128.61 Y87.88 E160.171
G0 X128.48 Y87.18 F4800
G1 X125.15 Y83.85 E160.406 F2100
G1 X121.82 Y80.52 E160.641
G0 X122.56 Y80.7 F4800
G1 X125.43 Y83.57 E160.844 F2100
G1 X128.3 Y86.44 E161.046
G0 X127.94 Y85.51 F4800
G1 X125.72 Y83.29 E161.203 F2100
G1 X123.49 Y81.06 E161.36
G1 E160.56
G0 Z1.7
G0 X124.71 Y81.72 F4800
G0 Z1.1
G1 E161.36 F2100
G1 X127.28 Y84.28 E161.541
G1 E160.741
G0 Z1.7
G0 X124.56 Y88.73 F4800
G0 X121.84 Y93.18
G0 X119.12 Y97.63
G0 Z1.1
G1 E161.541 F2100
G1 X116.54 Y95.05 E161.723
G1 X113.95 Y92.46 E161.905
G1 X111.37 Y89.88 E162.087
G0 X111.45 Y90.52 F4800
G1 X114.97 Y94.04 E162.336 F2100
G1 X118.48 Y97.55 E162.584
G0 X117.74 Y97.37 F4800
G1 X114.69 Y94.32 E162.8 F2100
G1 X111.63 Y91.26 E163.015
G0 X111.9 Y92.1 F4800
G1 X114.4 Y94.6 E163.191 F2100
G1 X116.9 Y97.1 E163.367
G1 E162.567
G0 Z1.7
G0 X115.87 Y96.64 F4800
G0 Z1.1
G1 E163.367 F2100
G1 X112.36 Y93.13 E163.615
; Layer Change GCode
; LAYER:4
; LAYER_HEIGHT:0.3
; TYPE:FILL
G1 E162.815
G0 Z1.7
G0 Z2 F4800
G0 X115.4 Y91.78
G0 X117.91 Y94.14
G0 X119.53 Y94.88
; TYPE:WALL-OUTER
G0 Z1.4
G1 E163.615 F2100
G1 X118.69 Y94.68 E163.658 F1350
G1 X117.88 Y94.34 E163.702
G1 X117.14 Y93.89 E163.745
G1 X116.48 Y93.32 E163.788
G1 X115.91 Y92.66 E163.832
G1 X115.46 Y91.92 E163.875
G1 X115.12 Y91.11 E163.919
G1 X114.92 Y90.27 E163.962
G1 X114.85 Y89.4 E164.006
G1 X114.92 Y88.53 E164.049
G1 X115.12 Y87.69 E164.092
G1 X115.46 Y86.88 E164.136
G1 X115.91 Y86.14 E164.179
G1 X116.48 Y85.48 E164.223
G1 X117.14 Y84.91 E164.266
G1 X117.88 Y84.46 E164.31
G1 X118.69 Y84.12 E164.353
G1 X119.53 Y83.92 E164.397
G1 X120.4 Y83.85 E164.44
G1 X121.27 Y83.92 E164.483
G1 X122.11 Y84.12 E164.527
G1 X122.92 Y84.46 E164.57
G1 X123.66 Y84.91 E164.614
G1 X124.32 Y85.48 E164.657
G1 X124.89 Y86.14 E164.701
G1 X125.34 Y86.88 E164.744
G1 X125.68 Y87.69 E164.788
G1 X125.88 Y88.53 E164.831
G1 X125.95 Y89.4 E164.875
G1 X125.88 Y90.27 E164.918
G1 X125.68 Y91.11 E164.961
G1 X125.34 Y91.92 E165.005
G1 X124.89 Y92.66 E165.048
G1 X124.32 Y93.32 E165.092
G1 X123.66 Y93.89 E165.135
G1 X122.92 Y94.34 E165.179
G1 X122.11 Y94.68 E165.222
G1 X121.27 Y94.88 E165.265
G1 X120.4 Y94.95 E165.309
G1 X119.65 Y94.89 E165.346
G0 X119.53 Y94.88
G0 X118.69 Y94.68
G0 X117.88 Y94.34
G0 X117.14 Y93.89
G0 X116.84 Y93.64
G1 E164.546 F2100
G0 Z2
G0 X119.53 Y94.73 F4800
G0 X122.86 Y94.08
G0 X125.08 Y91.86
G0 X125.64 Y88.59
G0 X124.72 Y86.07
G0 X123.19 Y84.62
G0 X122.05 Y84.31
G0 Z1.4
G1 E165.346 F2100
G1 X121.24 Y84.12 E165.388 F1350
G1 X120.4 Y84.05 E165.43
G1 X119.56 Y84.12 E165.472
G1 X118.75 Y84.31 E165.514
G1 X117.97 Y84.63 E165.556
G1 X117.25 Y85.07 E165.598
G1 X116.62 Y85.62 E165.64
G1 X116.07 Y86.25 E165.681
G1 X115.63 Y86.97 E165.723
G1 X115.31 Y87.75 E165.765
G1 X115.12 Y88.56 E165.807
G1 X115.05 Y89.4 E165.849
G1 X115.12 Y90.24 E165.891
G1 X115.31 Y91.05 E165.933
G1 X115.63 Y91.83 E165.975
G1 X116.07 Y92.55 E166.017
G1 X116.62 Y93.18 E166.059
G1 X117.25 Y93.73 E166.1
G1 X117.97 Y94.17 E166.142
G1 X118.75 Y94.49 E166.184
G1 X119.56 Y94.68 E166.226
G1 X120.4 Y94.75 E166.268
G1 X121.24 Y94.68 E166.31
G1 X122.05 Y94.49 E166.352
G1 X122.83 Y94.17 E166.394
G1 X123.55 Y93.73 E166.436
G1 X124.18 Y93.18 E166.477
G1 X124.73 Y92.55 E166.519
G1 X125.17 Y91.83 E166.561
G1 X125.49 Y91.05 E166.603
G1 X125.68 Y90.24 E166.645
G1 X125.75 Y89.4 E166.687
G1 X125.68 Y88.56 E166.729
G1 X125.49 Y87.75 E166.771
G1 X125.17 Y86.97 E166.813
G1 X124.73 Y86.25 E166.854
G1 X124.18 Y85.62 E166.896
G1 X123.55 Y85.07 E166.938
G1 X122.83 Y84.63 E166.98
G1 X122.16 Y84.36 E167.016
G0 X122.05 Y84.31
G0 X121.24 Y84.12
G0 X120.4 Y84.05
G0 X119.56 Y84.12
G0 X119.09 Y84.23
; Layer Change GCode
; LAYER:5
; LAYER_HEIGHT:0.3
; TYPE:FILL
G1 E166.216 F2100
G0 Z2
G0 X120.4 Y84.05 Z2.3 F4800
; TYPE:WALL-OUTER
G0 Z1.7
G1 E167.016 F2100
G1 X119.56 Y84.12 E167.058 F1200
G1 X118.75 Y84.31 E167.1
G1 X117.97 Y84.63 E167.142
G1 X117.25 Y85.07 E167.184
G1 X116.62 Y85.62 E167.225
G1 X116.07 Y86.25 E167.267
G1 X115.63 Y86.97 E167.309
G1 X115.31 Y87.75 E167.351
G1 X115.12 Y88.56 E167.393
G1 X115.05 Y89.4 E167.435
G1 X115.12 Y90.24 E167.477
G1 X115.31 Y91.05 E167.519
G1 X115.63 Y91.83 E167.561
G1 X116.07 Y92.55 E167.602
G1 X116.62 Y93.18 E167.644
G1 X117.25 Y93.73 E167.686
G1 X117.97 Y94.17 E167.728
G1 X118.75 Y94.49 E167.77
G1 X119.56 Y94.68 E167.812
G1 X120.4 Y94.75 E167.854
G1 X121.24 Y94.68 E167.896
G1 X122.05 Y94.49 E167.938
G1 X122.83 Y94.17 E167.979
G1 X123.55 Y93.73 E168.021
G1 X124.18 Y93.18 E168.063
G1 X124.73 Y92.55 E168.105
G1 X125.17 Y91.83 E168.147
G1 X125.49 Y91.05 E168.189
G1 X125.68 Y90.24 E168.231
G1 X125.75 Y89.4 E168.273
G1 X125.68 Y88.56 E168.315
G1 X125.49 Y87.75 E168.356
G1 X125.17 Y86.97 E168.398
G1 X124.73 Y86.25 E168.44
G1 X124.18 Y85.62 E168.482
G1 X123.55 Y85.07 E168.524
G1 X122.83 Y84.63 E168.566
G1 X122.05 Y84.31 E168.608
G1 X121.24 Y84.12 E168.65
G1 X120.52 Y84.06 E168.685
G0 X120.4 Y84.05
G0 X119.56 Y84.12
G0 X118.75 Y84.31
G0 X117.97 Y84.63
G0 X117.56 Y84.88
G1 E167.885 F2100
G0 Z2.3
G0 X120.4 Y83.9 F4800
G0 X123.73 Y84.94
G0 X125.6 Y87.81
G0 X125.45 Y91.14
G0 X123.58 Y93.72
G0 X121.27 Y94.88
G0 Z1.7
G1 E168.685 F2100
G1 X120.4 Y94.95 E168.729 F1200
G1 X119.53 Y94.88 E168.772
G1 X118.69 Y94.68 E168.816
G1 X117.88 Y94.34 E168.859
G1 X117.14 Y93.89 E168.903
G1 X116.48 Y93.32 E168.946
G1 X115.91 Y92.66 E168.99
G1 X115.46 Y91.92 E169.033
G1 X115.12 Y91.11 E169.077
G1 X114.92 Y90.27 E169.12
G1 X114.85 Y89.4 E169.163
G1 X114.92 Y88.53 E169.207
G1 X115.12 Y87.69 E169.25
G1 X115.46 Y86.88 E169.294
G1 X115.91 Y86.14 E169.337
G1 X116.48 Y85.48 E169.381
G1 X117.14 Y84.91 E169.424
G1 X117.88 Y84.46 E169.467
G1 X118.69 Y84.12 E169.511
G1 X119.53 Y83.92 E169.554
G1 X120.4 Y83.85 E169.598
G1 X121.27 Y83.92 E169.641
G1 X122.11 Y84.12 E169.685
G1 X122.92 Y84.46 E169.728
G1 X123.66 Y84.91 E169.772
G1 X124.32 Y85.48 E169.815
G1 X124.89 Y86.14 E169.859
G1 X125.34 Y86.88 E169.902
G1 X125.68 Y87.69 E169.946
G1 X125.88 Y88.53 E169.989
G1 X125.95 Y89.4 E170.032
G1 X125.88 Y90.27 E170.076
G1 X125.68 Y91.11 E170.119
G1 X125.34 Y91.92 E170.163
G1 X124.89 Y92.66 E170.206
G1 X124.32 Y93.32 E170.25
G1 X123.66 Y93.89 E170.293
G1 X122.92 Y94.34 E170.336
G1 X122.11 Y94.68 E170.38
G1 X121.39 Y94.85 E170.417
G0 X121.27 Y94.88
G0 X120.4 Y94.95
G0 X119.53 Y94.88
G0 X118.69 Y94.68
G0 X118.33 Y94.53
; Layer Change GCode
; LAYER:6
; LAYER_HEIGHT:0.3
; TYPE:FILL
G1 E169.617 F2100
G0 Z2.3
G0 X118.48 Y94.38 Z2.6 F4800
G0 X120.4 Y94.95
; TYPE:WALL-OUTER
G0 Z2
G1 E170.417 F2100
G1 X119.53 Y94.88 E170.461 F1050
G1 X118.69 Y94.68 E170.504
G1 X117.88 Y94.34 E170.548
G1 X117.14 Y93.89 E170.591
G1 X116.48 Y93.32 E170.635
G1 X115.91 Y92.66 E170.678
G1 X115.46 Y91.92 E170.721
G1 X115.12 Y91.11 E170.765
G1 X114.92 Y90.27 E170.808
G1 X114.85 Y89.4 E170.852
G1 X114.92 Y88.53 E170.895
G1 X115.12 Y87.69 E170.939
G1 X115.46 Y86.88 E170.982
G1 X115.91 Y86.14 E171.025
G1 X116.48 Y85.48 E171.069
G1 X117.14 Y84.91 E171.113
G1 X117.88 Y84.46 E171.156
G1 X118.69 Y84.12 E171.199
G1 X119.53 Y83.92 E171.243
G1 X120.4 Y83.85 E171.286
G1 X121.27 Y83.92 E171.33
G1 X122.11 Y84.12 E171.373
G1 X122.92 Y84.46 E171.417
G1 X123.66 Y84.91 E171.46
G1 X124.32 Y85.48 E171.503
G1 X124.89 Y86.14 E171.547
G1 X125.34 Y86.88 E171.59
G1 X125.68 Y87.69 E171.634
G1 X125.88 Y88.53 E171.677
G1 X125.95 Y89.4 E171.721
G1 X125.88 Y90.27 E171.764
G1 X125.68 Y91.11 E171.807
G1 X125.34 Y91.92 E171.851
G1 X124.89 Y92.66 E171.894
G1 X124.32 Y93.32 E171.938
G1 X123.66 Y93.89 E171.981
G1 X122.92 Y94.34 E172.025
G1 X122.11 Y94.68 E172.068
G1 X121.27 Y94.88 E172.112
G1 X120.52 Y94.94 E172.149
G0 X120.4 Y94.95
G0 X119.53 Y94.88
G0 X118.69 Y94.68
G0 X117.88 Y94.34
G0 X117.55 Y94.14
G1 E171.349 F2100
G0 Z2.6
G0 X120.4 Y94.65 F4800
G0 X117.91 Y94.14
G0 X115.66 Y92.19
G0 X115.02 Y88.59
G0 X115.94 Y86.07
G0 X117.76 Y84.51
G0 X119.56 Y84.12
G0 Z2
G1 E172.149 F2100
G1 X118.75 Y84.31 E172.191 F1050
G1 X117.97 Y84.63 E172.233
G1 X117.25 Y85.07 E172.275
G1 X116.62 Y85.62 E172.317
G1 X116.07 Y86.25 E172.359
G1 X115.63 Y86.97 E172.4
G1 X115.31 Y87.75 E172.442
G1 X115.12 Y88.56 E172.484
G1 X115.05 Y89.4 E172.526
G1 X115.12 Y90.24 E172.568
G1 X115.31 Y91.05 E172.61
G1 X115.63 Y91.83 E172.652
G1 X116.07 Y92.55 E172.694
G1 X116.62 Y93.18 E172.736
G1 X117.25 Y93.73 E172.777
G1 X117.97 Y94.17 E172.819
G1 X118.75 Y94.49 E172.861
G1 X119.56 Y94.68 E172.903
G1 X120.4 Y94.75 E172.945
G1 X121.24 Y94.68 E172.987
G1 X122.05 Y94.49 E173.029
G1 X122.83 Y94.17 E173.071
G1 X123.55 Y93.73 E173.113
G1 X124.18 Y93.18 E173.154
G1 X124.73 Y92.55 E173.196
G1 X125.17 Y91.83 E173.238
G1 X125.49 Y91.05 E173.28
G1 X125.68 Y90.24 E173.322
G1 X125.75 Y89.4 E173.364
G1 X125.68 Y88.56 E173.406
G1 X125.49 Y87.75 E173.448
G1 X125.17 Y86.97 E173.49
G1 X124.73 Y86.25 E173.532
G1 X124.18 Y85.62 E173.573
G1 X123.55 Y85.07 E173.615
G1 X122.83 Y84.63 E173.657
G1 X122.05 Y84.31 E173.699
G1 X121.24 Y84.12 E173.741
G1 X120.4 Y84.05 E173.783
G1 X119.68 Y84.11 E173.819
G0 X119.56 Y84.12
G0 X118.75 Y84.31
G0 X117.97 Y84.63
G0 X117.25 Y85.07
G0 X116.89 Y85.38
; Layer Change GCode
; LAYER:7
; LAYER_HEIGHT:0.3
; TYPE:FILL
G1 E173.019 F2100
G0 Z2.6
G0 X116.74 Y85.24 Z2.9 F4800
G0 X119.59 Y84.02
G0 X121.24 Y84.12
; TYPE:WALL-OUTER
G0 Z2.3
G1 E173.819 F2100
G1 X120.4 Y84.05 E173.861 F900
G1 X119.56 Y84.12 E173.902
G1 X118.75 Y84.31 E173.944
G1 X117.97 Y84.63 E173.986
G1 X117.25 Y85.07 E174.028
G1 X116.62 Y85.62 E174.07
G1 X116.07 Y86.25 E174.112
G1 X115.63 Y86.97 E174.154
G1 X115.31 Y87.75 E174.196
G1 X115.12 Y88.56 E174.238
G1 X115.05 Y89.4 E174.279
G1 X115.12 Y90.24 E174.321
G1 X115.31 Y91.05 E174.363
G1 X115.63 Y91.83 E174.405
G1 X116.07 Y92.55 E174.447
G1 X116.62 Y93.18 E174.489
G1 X117.25 Y93.73 E174.531
G1 X117.97 Y94.17 E174.573
G1 X118.75 Y94.49 E174.615
G1 X119.56 Y94.68 E174.656
G1 X120.4 Y94.75 E174.698
G1 X121.24 Y94.68 E174.74
G1 X122.05 Y94.49 E174.782
G1 X122.83 Y94.17 E174.824
G1 X123.55 Y93.73 E174.866
G1 X124.18 Y93.18 E174.908
G1 X124.73 Y92.55 E174.95
G1 X125.17 Y91.83 E174.992
G1 X125.49 Y91.05 E175.033
G1 X125.68 Y90.24 E175.075
G1 X125.75 Y89.4 E175.117
G1 X125.68 Y88.56 E175.159
G1 X125.49 Y87.75 E175.201
G1 X125.17 Y86.97 E175.243
G1 X124.73 Y86.25 E175.285
G1 X124.18 Y85.62 E175.327
G1 X123.55 Y85.07 E175.369
G1 X122.83 Y84.63 E175.41
G1 X122.05 Y84.31 E175.452
G1 X121.35 Y84.14 E175.488
G0 X121.24 Y84.12
G0 X120.4 Y84.05
G0 X119.56 Y84.12
G0 X118.75 Y84.31
G0 X118.3 Y84.5
G1 E174.688 F2100
G0 Z2.9
G0 X121.24 Y83.97 F4800
G0 X117.76 Y84.51
G0 X115.51 Y86.76
G0 X114.95 Y89.4
G0 X115.94 Y92.73
G0 X119.53 Y94.88
G0 Z2.3
G1 E175.488 F2100
G1 X118.69 Y94.68 E175.532 F900
G1 X117.88 Y94.34 E175.575
G1 X117.14 Y93.89 E175.618
G1 X116.48 Y93.32 E175.662
G1 X115.91 Y92.66 E175.706
G1 X115.46 Y91.92 E175.749
G1 X115.12 Y91.11 E175.792
G1 X114.92 Y90.27 E175.836
G1 X114.85 Y89.4 E175.879
G1 X114.92 Y88.53 E175.923
G1 X115.12 Y87.69 E175.966
G1 X115.46 Y86.88 E176.01
G1 X115.91 Y86.14 E176.053
G1 X116.48 Y85.48 E176.096
G1 X117.14 Y84.91 E176.14
G1 X117.88 Y84.46 E176.183
G1 X118.69 Y84.12 E176.227
G1 X119.53 Y83.92 E176.27
G1 X120.4 Y83.85 E176.314
G1 X121.27 Y83.92 E176.357
G1 X122.11 Y84.12 E176.4
G1 X122.92 Y84.46 E176.444
G1 X123.66 Y84.91 E176.487
G1 X124.32 Y85.48 E176.531
G1 X124.89 Y86.14 E176.574
G1 X125.34 Y86.88 E176.618
G1 X125.68 Y87.69 E176.661
G1 X125.88 Y88.53 E176.705
G1 X125.95 Y89.4 E176.748
G1 X125.88 Y90.27 E176.792
G1 X125.68 Y91.11 E176.835
G1 X125.34 Y91.92 E176.879
G1 X124.89 Y92.66 E176.922
G1 X124.32 Y93.32 E176.965
G1 X123.66 Y93.89 E177.009
G1 X122.92 Y94.34 E177.052
G1 X122.11 Y94.68 E177.096
G1 X121.27 Y94.88 E177.139
G1 X120.4 Y94.95 E177.183
G1 X119.65 Y94.89 E177.22
G0 X119.53 Y94.88
G0 X118.69 Y94.68
G0 X117.88 Y94.34
G0 X117.14 Y93.89
G0 X116.84 Y93.64
; Layer Change GCode
; LAYER:8
; LAYER_HEIGHT:0.3
; TYPE:FILL
G1 E176.42 F2100
G0 Z2.9
G0 Z3.2 F4800
G0 X119.59 Y94.64
G0 X121.27 Y94.88
; TYPE:WALL-OUTER
G0 Z2.6
G1 E177.22 F2100
G1 X120.4 Y94.95 E177.263 F900
G1 X119.53 Y94.88 E177.307
G1 X118.69 Y94.68 E177.35
G1 X117.88 Y94.34 E177.394
G1 X117.14 Y93.89 E177.437
G1 X116.48 Y93.32 E177.481
G1 X115.91 Y92.66 E177.524
G1 X115.46 Y91.92 E177.568
G1 X115.12 Y91.11 E177.611
G1 X114.92 Y90.27 E177.655
G1 X114.85 Y89.4 E177.698
G1 X114.92 Y88.53 E177.741
G1 X115.12 Y87.69 E177.785
G1 X115.46 Y86.88 E177.828
G1 X115.91 Y86.14 E177.872
G1 X116.48 Y85.48 E177.915
G1 X117.14 Y84.91 E177.959
G1 X117.88 Y84.46 E178.002
G1 X118.69 Y84.12 E178.046
G1 X119.53 Y83.92 E178.089
G1 X120.4 Y83.85 E178.132
G1 X121.27 Y83.92 E178.176
G1 X122.11 Y84.12 E178.219
G1 X122.92 Y84.46 E178.263
G1 X123.66 Y84.91 E178.306
G1 X124.32 Y85.48 E178.35
G1 X124.89 Y86.14 E178.393
G1 X125.34 Y86.88 E178.436
G1 X125.68 Y87.69 E178.48
G1 X125.88 Y88.53 E178.523
G1 X125.95 Y89.4 E178.567
G1 X125.88 Y90.27 E178.61
G1 X125.68 Y91.11 E178.654
G1 X125.34 Y91.92 E178.697
G1 X124.89 Y92.66 E178.741
G1 X124.32 Y93.32 E178.784
G1 X123.66 Y93.89 E178.828
G1 X122.92 Y94.34 E178.871
G1 X122.11 Y94.68 E178.915
G1 X121.39 Y94.85 E178.952
G0 X121.27 Y94.88
G0 X120.4 Y94.95
G0 X119.53 Y94.88
G0 X118.69 Y94.68
G0 X118.33 Y94.53
G1 E178.152 F2100
G0 Z3.2
G0 X121.27 Y94.73 F4800
G0 X117.91 Y94.14
G0 X115.66 Y92.19
G0 X115.02 Y88.59
G0 X115.94 Y86.07
G0 X117.76 Y84.51
G0 X118.75 Y84.31
G0 Z2.6
G1 E178.952 F2100
G1 X117.97 Y84.63 E178.994 F900
G1 X117.25 Y85.07 E179.036
G1 X116.62 Y85.62 E179.078
G1 X116.07 Y86.25 E179.119
G1 X115.63 Y86.97 E179.161
G1 X115.31 Y87.75 E179.203
G1 X115.12 Y88.56 E179.245
G1 X115.05 Y89.4 E179.287
G1 X115.12 Y90.24 E179.329
G1 X115.31 Y91.05 E179.371
G1 X115.63 Y91.83 E179.413
G1 X116.07 Y92.55 E179.455
G1 X116.62 Y93.18 E179.496
G1 X117.25 Y93.73 E179.538
G1 X117.97 Y94.17 E179.58
G1 X118.75 Y94.49 E179.622
G1 X119.56 Y94.68 E179.664
G1 X120.4 Y94.75 E179.706
G1 X121.24 Y94.68 E179.748
G1 X122.05 Y94.49 E179.79
G1 X122.83 Y94.17 E179.832
G1 X123.55 Y93.73 E179.873
G1 X124.18 Y93.18 E179.915
G1 X124.73 Y92.55 E179.957
G1 X125.17 Y91.83 E179.999
G1 X125.49 Y91.05 E180.041
G1 X125.68 Y90.24 E180.083
G1 X125.75 Y89.4 E180.125
G1 X125.68 Y88.56 E180.167
G1 X125.49 Y87.75 E180.209
G1 X125.17 Y86.97 E180.25
G1 X124.73 Y86.25 E180.292
G1 X124.18 Y85.62 E180.334
G1 X123.55 Y85.07 E180.376
G1 X122.83 Y84.63 E180.418
G1 X122.05 Y84.31 E180.46
G1 X121.24 Y84.12 E180.502
G1 X120.4 Y84.05 E180.544
G1 X119.56 Y84.12 E180.585
G1 X118.86 Y84.28 E180.621
G0 X118.75 Y84.31
G0 X117.97 Y84.63
G0 X117.25 Y85.07
G0 X116.62 Y85.62
G0 X116.3 Y85.98
; Layer Change GCode
; LAYER:9
; LAYER_HEIGHT:0.3
; TYPE:FILL
G1 E179.821 F2100
G0 Z3.2
G0 X116.15 Y85.83 Z3.5 F4800
G0 X118.81 Y84.06
G0 X122.05 Y84.31
; TYPE:WALL-OUTER
G0 Z2.9
G1 E180.621 F2100
G1 X121.24 Y84.12 E180.663 F900
G1 X120.4 Y84.05 E180.705
G1 X119.56 Y84.12 E180.747
G1 X118.75 Y84.31 E180.789
G1 X117.97 Y84.63 E180.831
G1 X117.25 Y85.07 E180.873
G1 X116.62 Y85.62 E180.915
G1 X116.07 Y86.25 E180.956
G1 X115.63 Y86.97 E180.998
G1 X115.31 Y87.75 E181.04
G1 X115.12 Y88.56 E181.082
G1 X115.05 Y89.4 E181.124
G1 X115.12 Y90.24 E181.166
G1 X115.31 Y91.05 E181.208
G1 X115.63 Y91.83 E181.25
G1 X116.07 Y92.55 E181.292
G1 X116.62 Y93.18 E181.334
G1 X117.25 Y93.73 E181.375
G1 X117.97 Y94.17 E181.417
G1 X118.75 Y94.49 E181.459
G1 X119.56 Y94.68 E181.501
G1 X120.4 Y94.75 E181.543
G1 X121.24 Y94.68 E181.585
G1 X122.05 Y94.49 E181.627
G1 X122.83 Y94.17 E181.669
G1 X123.55 Y93.73 E181.711
G1 X124.18 Y93.18 E181.752
G1 X124.73 Y92.55 E181.794
G1 X125.17 Y91.83 E181.836
G1 X125.49 Y91.05 E181.878
G1 X125.68 Y90.24 E181.92
G1 X125.75 Y89.4 E181.962
G1 X125.68 Y88.56 E182.004
G1 X125.49 Y87.75 E182.046
G1 X125.17 Y86.97 E182.088
G1 X124.73 Y86.25 E182.129
G1 X124.18 Y85.62 E182.171
G1 X123.55 Y85.07 E182.213
G1 X122.83 Y84.63 E182.255
G1 X122.16 Y84.36 E182.291
G0 X122.05 Y84.31
G0 X121.24 Y84.12
G0 X120.4 Y84.05
G0 X119.56 Y84.12
G0 X119.09 Y84.23
G1 E181.491 F2100
G0 Z3.5
G0 X122.05 Y84.31 F4800
G0 X123.73 Y84.94
G0 X125.6 Y87.81
G0 X125.45 Y91.14
G0 X123.58 Y93.72
G0 X120.4 Y94.95
G0 Z2.9
G1 E182.291 F2100
G1 X119.53 Y94.88 E182.334 F900
G1 X118.69 Y94.68 E182.378
G1 X117.88 Y94.34 E182.421
G1 X117.14 Y93.89 E182.465
G1 X116.48 Y93.32 E182.508
G1 X115.91 Y92.66 E182.552
G1 X115.46 Y91.92 E182.595
G1 X115.12 Y91.11 E182.639
G1 X114.92 Y90.27 E182.682
G1 X114.85 Y89.4 E182.725
G1 X114.92 Y88.53 E182.769
G1 X115.12 Y87.69 E182.812
G1 X115.46 Y86.88 E182.856
G1 X115.91 Y86.14 E182.899
G1 X116.48 Y85.48 E182.943
G1 X117.14 Y84.91 E182.986
G1 X117.88 Y84.46 E183.029
G1 X118.69 Y84.12 E183.073
G1 X119.53 Y83.92 E183.116
G1 X120.4 Y83.85 E183.16
G1 X121.27 Y83.92 E183.203
G1 X122.11 Y84.12 E183.247
G1 X122.92 Y84.46 E183.29
G1 X123.66 Y84.91 E183.334
G1 X124.32 Y85.48 E183.377
G1 X124.89 Y86.14 E183.421
G1 X125.34 Y86.88 E183.464
G1 X125.68 Y87.69 E183.508
G1 X125.88 Y88.53 E183.551
G1 X125.95 Y89.4 E183.594
G1 X125.88 Y90.27 E183.638
G1 X125.68 Y91.11 E183.681
G1 X125.34 Y91.92 E183.725
G1 X124.89 Y92.66 E183.768
G1 X124.32 Y93.32 E183.812
G1 X123.66 Y93.89 E183.855
G1 X122.92 Y94.34 E183.898
G1 X122.11 Y94.68 E183.942
G1 X121.27 Y94.88 E183.985
G1 X120.52 Y94.94 E184.023
G0 X120.4 Y94.95
G0 X119.53 Y94.88
G0 X118.69 Y94.68
G0 X117.88 Y94.34
G0 X117.55 Y94.14
; Layer Change GCode
; LAYER:10
; LAYER_HEIGHT:0.3
; TYPE:FILL
G1 E183.223 F2100
G0 Z3.5
G0 Y93.99 Z3.8 F4800
G0 X119.53 Y94.88
; TYPE:WALL-OUTER
G0 Z3.2
G1 E184.023 F2100
G1 X118.69 Y94.68 E184.066 F900
G1 X117.88 Y94.34 E184.11
G1 X117.14 Y93.89 E184.153
G1 X116.48 Y93.32 E184.197
G1 X115.91 Y92.66 E184.24
G1 X115.46 Y91.92 E184.283
G1 X115.12 Y91.11 E184.327
G1 X114.92 Y90.27 E184.37
G1 X114.85 Y89.4 E184.414
G1 X114.92 Y88.53 E184.457
G1 X115.12 Y87.69 E184.501
G1 X115.46 Y86.88 E184.544
G1 X115.91 Y86.14 E184.587
G1 X116.48 Y85.48 E184.631
G1 X117.14 Y84.91 E184.675
G1 X117.88 Y84.46 E184.718
G1 X118.69 Y84.12 E184.761
G1 X119.53 Y83.92 E184.805
G1 X120.4 Y83.85 E184.848
G1 X121.27 Y83.92 E184.892
G1 X122.11 Y84.12 E184.935
G1 X122.92 Y84.46 E184.979
G1 X123.66 Y84.91 E185.022
G1 X124.32 Y85.48 E185.065
G1 X124.89 Y86.14 E185.109
G1 X125.34 Y86.88 E185.152
G1 X125.68 Y87.69 E185.196
G1 X125.88 Y88.53 E185.239
G1 X125.95 Y89.4 E185.283
G1 X125.88 Y90.27 E185.326
G1 X125.68 Y91.11 E185.369
G1 X125.34 Y91.92 E185.413
G1 X124.89 Y92.66 E185.456
G1 X124.32 Y93.32 E185.5
G1 X123.66 Y93.89 E185.543
G1 X122.92 Y94.34 E185.587
G1 X122.11 Y94.68 E185.63
G1 X121.27 Y94.88 E185.674
G1 X120.4 Y94.95 E185.717
G1 X119.65 Y94.89 E185.755
G0 X119.53 Y94.88
G0 X118.69 Y94.68
G0 X117.88 Y94.34
G0 X117.14 Y93.89
G0 X116.84 Y93.64
G1 E184.955 F2100
G0 Z3.8
G0 X119.53 Y94.73 F4800
G0 X116.65 Y93.15
G0 X115.66 Y92.19
G0 X115.02 Y88.59
G0 X115.94 Y86.07
G0 X118.81 Y84.06
G0 X120.4 Y84.05
G0 Z3.2
G1 E185.755 F2100
G1 X119.56 Y84.12 E185.796 F900
G1 X118.75 Y84.31 E185.838
G1 X117.97 Y84.63 E185.88
G1 X117.25 Y85.07 E185.922
G1 X116.62 Y85.62 E185.964
G1 X116.07 Y86.25 E186.006
G1 X115.63 Y86.97 E186.048
G1 X115.31 Y87.75 E186.09
G1 X115.12 Y88.56 E186.132
G1 X115.05 Y89.4 E186.174
G1 X115.12 Y90.24 E186.215
G1 X115.31 Y91.05 E186.257
G1 X115.63 Y91.83 E186.299
G1 X116.07 Y92.55 E186.341
G1 X116.62 Y93.18 E186.383
G1 X117.25 Y93.73 E186.425
G1 X117.97 Y94.17 E186.467
G1 X118.75 Y94.49 E186.509
G1 X119.56 Y94.68 E186.551
G1 X120.4 Y94.75 E186.592
G1 X121.24 Y94.68 E186.634
G1 X122.05 Y94.49 E186.676
G1 X122.83 Y94.17 E186.718
G1 X123.55 Y93.73 E186.76
G1 X124.18 Y93.18 E186.802
G1 X124.73 Y92.55 E186.844
G1 X125.17 Y91.83 E186.886
G1 X125.49 Y91.05 E186.927
G1 X125.68 Y90.24 E186.969
G1 X125.75 Y89.4 E187.011
G1 X125.68 Y88.56 E187.053
G1 X125.49 Y87.75 E187.095
G1 X125.17 Y86.97 E187.137
G1 X124.73 Y86.25 E187.179
G1 X124.18 Y85.62 E187.221
G1 X123.55 Y85.07 E187.263
G1 X122.83 Y84.63 E187.304
G1 X122.05 Y84.31 E187.346
G1 X121.24 Y84.12 E187.388
G1 X120.52 Y84.06 E187.424
G0 X120.4 Y84.05
G0 X119.56 Y84.12
G0 X118.75 Y84.31
G0 X117.97 Y84.63
G0 X117.56 Y84.88
; Layer Change GCode
; LAYER:11
; LAYER_HEIGHT:0.3
; TYPE:FILL
G1 E186.624 F2100
G0 Z3.8
G0 Y84.74 Z4.1 F4800
G0 X119.56 Y84.12
; TYPE:WALL-OUTER
G0 Z3.5
G1 E187.424 F2100
G1 X118.75 Y84.31 E187.466 F900
G1 X117.97 Y84.63 E187.508
G1 X117.25 Y85.07 E187.55
G1 X116.62 Y85.62 E187.592
G1 X116.07 Y86.25 E187.634
G1 X115.63 Y86.97 E187.675
G1 X115.31 Y87.75 E187.717
G1 X115.12 Y88.56 E187.759
G1 X115.05 Y89.4 E187.801
G1 X115.12 Y90.24 E187.843
G1 X115.31 Y91.05 E187.885
G1 X115.63 Y91.83 E187.927
G1 X116.07 Y92.55 E187.969
G1 X116.62 Y93.18 E188.011
G1 X117.25 Y93.73 E188.052
G1 X117.97 Y94.17 E188.094
G1 X118.75 Y94.49 E188.136
G1 X119.56 Y94.68 E188.178
G1 X120.4 Y94.75 E188.22
G1 X121.24 Y94.68 E188.262
G1 X122.05 Y94.49 E188.304
G1 X122.83 Y94.17 E188.346
G1 X123.55 Y93.73 E188.388
G1 X124.18 Y93.18 E188.429
G1 X124.73 Y92.55 E188.471
G1 X125.17 Y91.83 E188.513
G1 X125.49 Y91.05 E188.555
G1 X125.68 Y90.24 E188.597
G1 X125.75 Y89.4 E188.639
G1 X125.68 Y88.56 E188.681
G1 X125.49 Y87.75 E188.723
G1 X125.17 Y86.97 E188.765
G1 X124.73 Y86.25 E188.807
G1 X124.18 Y85.62 E188.848
G1 X123.55 Y85.07 E188.89
G1 X122.83 Y84.63 E188.932
G1 X122.05 Y84.31 E188.974
G1 X121.24 Y84.12 E189.016
G1 X120.4 Y84.05 E189.058
G1 X119.68 Y84.11 E189.094
G0 X119.56 Y84.12
G0 X118.75 Y84.31
G0 X117.97 Y84.63
G0 X117.25 Y85.07
G0 X116.89 Y85.38
G1 E188.294 F2100
G0 Z4.1
G0 X119.56 Y83.97 F4800
G0 X123.19 Y84.66
G0 X125.14 Y86.91
G0 X125.64 Y89.4
G0 X125.08 Y91.86
G0 X122.86 Y94.08
G0 X121.27 Y94.88
G0 Z3.5
G1 E189.094 F2100
G1 X120.4 Y94.95 E189.137 F900
G1 X119.53 Y94.88 E189.181
G1 X118.69 Y94.68 E189.224
G1 X117.88 Y94.34 E189.268
G1 X117.14 Y93.89 E189.311
G1 X116.48 Y93.32 E189.354
G1 X115.91 Y92.66 E189.398
G1 X115.46 Y91.92 E189.441
G1 X115.12 Y91.11 E189.485
G1 X114.92 Y90.27 E189.528
G1 X114.85 Y89.4 E189.572
G1 X114.92 Y88.53 E189.615
G1 X115.12 Y87.69 E189.658
G1 X115.46 Y86.88 E189.702
G1 X115.91 Y86.14 E189.745
G1 X116.48 Y85.48 E189.789
G1 X117.14 Y84.91 E189.832
G1 X117.88 Y84.46 E189.876
G1 X118.69 Y84.12 E189.919
G1 X119.53 Y83.92 E189.963
G1 X120.4 Y83.85 E190.006
G1 X121.27 Y83.92 E190.05
G1 X122.11 Y84.12 E190.093
G1 X122.92 Y84.46 E190.136
G1 X123.66 Y84.91 E190.18
G1 X124.32 Y85.48 E190.223
G1 X124.89 Y86.14 E190.267
G1 X125.34 Y86.88 E190.31
G1 X125.68 Y87.69 E190.354
G1 X125.88 Y88.53 E190.397
G1 X125.95 Y89.4 E190.441
G1 X125.88 Y90.27 E190.484
G1 X125.68 Y91.11 E190.527
G1 X125.34 Y91.92 E190.571
G1 X124.89 Y92.66 E190.614
G1 X124.32 Y93.32 E190.658
G1 X123.66 Y93.89 E190.701
G1 X122.92 Y94.34 E190.745
G1 X122.11 Y94.68 E190.788
G1 X121.39 Y94.85 E190.825
G0 X121.27 Y94.88
G0 X120.4 Y94.95
G0 X119.53 Y94.88
G0 X118.69 Y94.68
G0 X118.33 Y94.53
; Layer Change GCode
; LAYER:12
; LAYER_HEIGHT:0.3
; TYPE:FILL
G1 E190.025 F2100
G0 Z4.1
G0 X118.48 Y94.38 Z4.4 F4800
G0 X120.4 Y94.95
; TYPE:WALL-OUTER
G0 Z3.8
G1 E190.825 F2100
G1 X119.53 Y94.88 E190.869 F900
G1 X118.69 Y94.68 E190.912
G1 X117.88 Y94.34 E190.956
G1 X117.14 Y93.89 E190.999
G1 X116.48 Y93.32 E191.043
G1 X115.91 Y92.66 E191.086
G1 X115.46 Y91.92 E191.13
G1 X115.12 Y91.11 E191.173
G1 X114.92 Y90.27 E191.217
G1 X114.85 Y89.4 E191.26
G1 X114.92 Y88.53 E191.303
G1 X115.12 Y87.69 E191.347
G1 X115.46 Y86.88 E191.39
G1 X115.91 Y86.14 E191.434
G1 X116.48 Y85.48 E191.477
G1 X117.14 Y84.91 E191.521
G1 X117.88 Y84.46 E191.564
G1 X118.69 Y84.12 E191.608
G1 X119.53 Y83.92 E191.651
G1 X120.4 Y83.85 E191.694
G1 X121.27 Y83.92 E191.738
G1 X122.11 Y84.12 E191.781
G1 X122.92 Y84.46 E191.825
G1 X123.66 Y84.91 E191.868
G1 X124.32 Y85.48 E191.912
G1 X124.89 Y86.14 E191.955
G1 X125.34 Y86.88 E191.998
G1 X125.68 Y87.69 E192.042
G1 X125.88 Y88.53 E192.085
G1 X125.95 Y89.4 E192.129
G1 X125.88 Y90.27 E192.172
G1 X125.68 Y91.11 E192.216
G1 X125.34 Y91.92 E192.259
G1 X124.89 Y92.66 E192.303
G1 X124.32 Y93.32 E192.346
G1 X123.66 Y93.89 E192.39
G1 X122.92 Y94.34 E192.433
G1 X122.11 Y94.68 E192.477
G1 X121.27 Y94.88 E192.52
G1 X120.52 Y94.94 E192.557
G0 X120.4 Y94.95
G0 X119.53 Y94.88
G0 X118.69 Y94.68
G0 X117.88 Y94.34
G0 X117.55 Y94.14
G1 E191.757 F2100
G0 Z4.4
G0 X120.4 Y94.65 F4800
G0 X122.86 Y94.08
G0 X125.08 Y91.86
G0 X125.64 Y88.59
G0 X124.72 Y86.07
G0 X123.19 Y84.66
G0 X121.24 Y84.12
G0 Z3.8
G1 E192.557 F2100
G1 X120.4 Y84.05 E192.599 F900
G1 X119.56 Y84.12 E192.641
G1 X118.75 Y84.31 E192.683
G1 X117.97 Y84.63 E192.725
G1 X117.25 Y85.07 E192.767
G1 X116.62 Y85.62 E192.809
G1 X116.07 Y86.25 E192.85
G1 X115.63 Y86.97 E192.892
G1 X115.31 Y87.75 E192.934
G1 X115.12 Y88.56 E192.976
G1 X115.05 Y89.4 E193.018
G1 X115.12 Y90.24 E193.06
G1 X115.31 Y91.05 E193.102
G1 X115.63 Y91.83 E193.144
G1 X116.07 Y92.55 E193.186
G1 X116.62 Y93.18 E193.228
G1 X117.25 Y93.73 E193.269
G1 X117.97 Y94.17 E193.311
G1 X118.75 Y94.49 E193.353
G1 X119.56 Y94.68 E193.395
G1 X120.4 Y94.75 E193.437
G1 X121.24 Y94.68 E193.479
G1 X122.05 Y94.49 E193.521
G1 X122.83 Y94.17 E193.563
G1 X123.55 Y93.73 E193.605
G1 X124.18 Y93.18 E193.646
G1 X124.73 Y92.55 E193.688
G1 X125.17 Y91.83 E193.73
G1 X125.49 Y91.05 E193.772
G1 X125.68 Y90.24 E193.814
G1 X125.75 Y89.4 E193.856
G1 X125.68 Y88.56 E193.898
G1 X125.49 Y87.75 E193.94
G1 X125.17 Y86.97 E193.982
G1 X124.73 Y86.25 E194.023
G1 X124.18 Y85.62 E194.065
G1 X123.55 Y85.07 E194.107
G1 X122.83 Y84.63 E194.149
G1 X122.05 Y84.31 E194.191
G1 X121.35 Y84.14 E194.227
G0 X121.24 Y84.12
G0 X120.4 Y84.05
G0 X119.56 Y84.12
G0 X118.75 Y84.31
G0 X118.3 Y84.5
; Layer Change GCode
; LAYER:13
; LAYER_HEIGHT:0.3
; TYPE:FILL
G0 X118.75 Y84.31 Z4.1 F4800
; TYPE:WALL-OUTER
G1 X117.97 Y84.63 E194.269 F900
G1 X117.25 Y85.07 E194.311
G1 X116.62 Y85.62 E194.353
G1 X116.07 Y86.25 E194.394
G1 X115.63 Y86.97 E194.436
G1 X115.31 Y87.75 E194.478
G1 X115.12 Y88.56 E194.52
G1 X115.05 Y89.4 E194.562
G1 X115.12 Y90.24 E194.604
G1 X115.31 Y91.05 E194.646
G1 X115.63 Y91.83 E194.688
G1 X116.07 Y92.55 E194.73
G1 X116.62 Y93.18 E194.771
G1 X117.25 Y93.73 E194.813
G1 X117.97 Y94.17 E194.855
G1 X118.75 Y94.49 E194.897
G1 X119.56 Y94.68 E194.939
G1 X120.4 Y94.75 E194.981
G1 X121.24 Y94.68 E195.023
G1 X122.05 Y94.49 E195.065
G1 X122.83 Y94.17 E195.107
G1 X123.55 Y93.73 E195.148
G1 X124.18 Y93.18 E195.19
G1 X124.73 Y92.55 E195.232
G1 X125.17 Y91.83 E195.274
G1 X125.49 Y91.05 E195.316
G1 X125.68 Y90.24 E195.358
G1 X125.75 Y89.4 E195.4
G1 X125.68 Y88.56 E195.442
G1 X125.49 Y87.75 E195.484
G1 X125.17 Y86.97 E195.525
G1 X124.73 Y86.25 E195.567
G1 X124.18 Y85.62 E195.609
G1 X123.55 Y85.07 E195.651
G1 X122.83 Y84.63 E195.693
G1 X122.05 Y84.31 E195.735
G1 X121.24 Y84.12 E195.777
G1 X120.4 Y84.05 E195.819
G1 X119.56 Y84.12 E195.86
G1 X118.86 Y84.28 E195.896
G0 X118.75 Y84.31
G0 X117.97 Y84.63
G0 X117.25 Y85.07
G0 X116.62 Y85.62
G0 X116.3 Y85.98
G1 E195.096 F2100
G0 Z4.7
G0 X118.6 Y84.16 F4800
G0 X115.94 Y86.07
G0 X115.02 Y88.59
G0 X115.66 Y92.19
G0 X117.91 Y94.14
G0 X119.53 Y94.88
G0 Z4.1
G1 E195.896 F2100
G1 X118.69 Y94.68 E195.94 F900
G1 X117.88 Y94.34 E195.983
G1 X117.14 Y93.89 E196.027
G1 X116.48 Y93.32 E196.07
G1 X115.91 Y92.66 E196.114
G1 X115.46 Y91.92 E196.157
G1 X115.12 Y91.11 E196.201
G1 X114.92 Y90.27 E196.244
G1 X114.85 Y89.4 E196.287
G1 X114.92 Y88.53 E196.331
G1 X115.12 Y87.69 E196.374
G1 X115.46 Y86.88 E196.418
G1 X115.91 Y86.14 E196.461
G1 X116.48 Y85.48 E196.505
G1 X117.14 Y84.91 E196.548
G1 X117.88 Y84.46 E196.591
G1 X118.69 Y84.12 E196.635
G1 X119.53 Y83.92 E196.678
G1 X120.4 Y83.85 E196.722
G1 X121.27 Y83.92 E196.765
G1 X122.11 Y84.12 E196.809
G1 X122.92 Y84.46 E196.852
G1 X123.66 Y84.91 E196.896
G1 X124.32 Y85.48 E196.939
G1 X124.89 Y86.14 E196.983
G1 X125.34 Y86.88 E197.026
G1 X125.68 Y87.69 E197.07
G1 X125.88 Y88.53 E197.113
G1 X125.95 Y89.4 E197.156
G1 X125.88 Y90.27 E197.2
G1 X125.68 Y91.11 E197.243
G1 X125.34 Y91.92 E197.287
G1 X124.89 Y92.66 E197.33
G1 X124.32 Y93.32 E197.374
G1 X123.66 Y93.89 E197.417
G1 X122.92 Y94.34 E197.46
G1 X122.11 Y94.68 E197.504
G1 X121.27 Y94.88 E197.547
G1 X120.4 Y94.95 E197.591
G1 X119.65 Y94.89 E197.628
G0 X119.53 Y94.88
G0 X118.69 Y94.68
G0 X117.88 Y94.34
G0 X117.14 Y93.89
G0 X116.84 Y93.64
; Layer Change GCode
; LAYER:14
; LAYER_HEIGHT:0.3
; TYPE:FILL
G1 E196.828 F2100
G0 Z4.7
G0 Z5 F4800
G0 X119.59 Y94.64
G0 X121.27 Y94.88
; TYPE:WALL-OUTER
G0 Z4.4
G1 E197.628 F2100
G1 X120.4 Y94.95 E197.672 F900
G1 X119.53 Y94.88 E197.715
G1 X118.69 Y94.68 E197.758
G1 X117.88 Y94.34 E197.802
G1 X117.14 Y93.89 E197.845
G1 X116.48 Y93.32 E197.889
G1 X115.91 Y92.66 E197.932
G1 X115.46 Y91.92 E197.976
G1 X115.12 Y91.11 E198.019
G1 X114.92 Y90.27 E198.063
G1 X114.85 Y89.4 E198.106
G1 X114.92 Y88.53 E198.15
G1 X115.12 Y87.69 E198.193
G1 X115.46 Y86.88 E198.237
G1 X115.91 Y86.14 E198.28
G1 X116.48 Y85.48 E198.323
G1 X117.14 Y84.91 E198.367
G1 X117.88 Y84.46 E198.41
G1 X118.69 Y84.12 E198.454
G1 X119.53 Y83.92 E198.497
G1 X120.4 Y83.85 E198.541
G1 X121.27 Y83.92 E198.584
G1 X122.11 Y84.12 E198.627
G1 X122.92 Y84.46 E198.671
G1 X123.66 Y84.91 E198.714
G1 X124.32 Y85.48 E198.758
G1 X124.89 Y86.14 E198.801
G1 X125.34 Y86.88 E198.845
G1 X125.68 Y87.69 E198.888
G1 X125.88 Y88.53 E198.932
G1 X125.95 Y89.4 E198.975
G1 X125.88 Y90.27 E199.019
G1 X125.68 Y91.11 E199.062
G1 X125.34 Y91.92 E199.105
G1 X124.89 Y92.66 E199.149
G1 X124.32 Y93.32 E199.192
G1 X123.66 Y93.89 E199.236
G1 X122.92 Y94.34 E199.279
G1 X122.11 Y94.68 E199.323
G1 X121.39 Y94.85 E199.36
G0 X121.27 Y94.88
G0 X120.4 Y94.95
G0 X119.53 Y94.88
G0 X118.69 Y94.68
G0 X118.33 Y94.53
G1 E198.56 F2100
G0 Z5
G0 X121.27 Y94.73 F4800
G0 X124.19 Y93.19
G0 X125.64 Y90.21
G0 X125.6 Y87.81
G0 X123.73 Y84.94
G0 X122.05 Y84.31
G0 Z4.4
G1 E199.36 F2100
G1 X121.24 Y84.12 E199.402 F900
G1 X120.4 Y84.05 E199.444
G1 X119.56 Y84.12 E199.486
G1 X118.75 Y84.31 E199.528
G1 X117.97 Y84.63 E199.57
G1 X117.25 Y85.07 E199.611
G1 X116.62 Y85.62 E199.653
G1 X116.07 Y86.25 E199.695
G1 X115.63 Y86.97 E199.737
G1 X115.31 Y87.75 E199.779
G1 X115.12 Y88.56 E199.821
G1 X115.05 Y89.4 E199.863
G1 X115.12 Y90.24 E199.905
G1 X115.31 Y91.05 E199.946
G1 X115.63 Y91.83 E199.988
G1 X116.07 Y92.55 E200.03
G1 X116.62 Y93.18 E200.072
G1 X117.25 Y93.73 E200.114
G1 X117.97 Y94.17 E200.156
G1 X118.75 Y94.49 E200.198
G1 X119.56 Y94.68 E200.24
G1 X120.4 Y94.75 E200.282
G1 X121.24 Y94.68 E200.323
G1 X122.05 Y94.49 E200.365
G1 X122.83 Y94.17 E200.407
G1 X123.55 Y93.73 E200.449
G1 X124.18 Y93.18 E200.491
G1 X124.73 Y92.55 E200.533
G1 X125.17 Y91.83 E200.575
G1 X125.49 Y91.05 E200.617
G1 X125.68 Y90.24 E200.659
G1 X125.75 Y89.4 E200.7
G1 X125.68 Y88.56 E200.742
G1 X125.49 Y87.75 E200.784
G1 X125.17 Y86.97 E200.826
G1 X124.73 Y86.25 E200.868
G1 X124.18 Y85.62 E200.91
G1 X123.55 Y85.07 E200.952
G1 X122.83 Y84.63 E200.994
G1 X122.16 Y84.36 E201.03
G0 X122.05 Y84.31
G0 X121.24 Y84.12
G0 X120.4 Y84.05
G0 X119.56 Y84.12
G0 X119.09 Y84.23
; Layer Change GCode
; LAYER:15
; LAYER_HEIGHT:0.3
; TYPE:FILL
G1 E200.23 F2100
G0 Z5
G0 X120.4 Y84.05 Z5.3 F4800
; TYPE:WALL-OUTER
G0 Z4.7
G1 E201.03 F2100
G1 X119.56 Y84.12 E201.071 F900
G1 X118.75 Y84.31 E201.113
G1 X117.97 Y84.63 E201.155
G1 X117.25 Y85.07 E201.197
G1 X116.62 Y85.62 E201.239
G1 X116.07 Y86.25 E201.281
G1 X115.63 Y86.97 E201.323
G1 X115.31 Y87.75 E201.365
G1 X115.12 Y88.56 E201.407
G1 X115.05 Y89.4 E201.449
G1 X115.12 Y90.24 E201.49
G1 X115.31 Y91.05 E201.532
G1 X115.63 Y91.83 E201.574
G1 X116.07 Y92.55 E201.616
G1 X116.62 Y93.18 E201.658
G1 X117.25 Y93.73 E201.7
G1 X117.97 Y94.17 E201.742
G1 X118.75 Y94.49 E201.784
G1 X119.56 Y94.68 E201.826
G1 X120.4 Y94.75 E201.867
G1 X121.24 Y94.68 E201.909
G1 X122.05 Y94.49 E201.951
G1 X122.83 Y94.17 E201.993
G1 X123.55 Y93.73 E202.035
G1 X124.18 Y93.18 E202.077
G1 X124.73 Y92.55 E202.119
G1 X125.17 Y91.83 E202.161
G1 X125.49 Y91.05 E202.202
G1 X125.68 Y90.24 E202.244
G1 X125.75 Y89.4 E202.286
G1 X125.68 Y88.56 E202.328
G1 X125.49 Y87.75 E202.37
G1 X125.17 Y86.97 E202.412
G1 X124.73 Y86.25 E202.454
G1 X124.18 Y85.62 E202.496
G1 X123.55 Y85.07 E202.538
G1 X122.83 Y84.63 E202.579
G1 X122.05 Y84.31 E202.621
G1 X121.24 Y84.12 E202.663
G1 X120.52 Y84.06 E202.699
G0 X120.4 Y84.05
G0 X119.56 Y84.12
G0 X118.75 Y84.31
G0 X117.97 Y84.63
G0 X117.56 Y84.88
G1 E201.899 F2100
G0 Z5.3
G0 X120.4 Y83.9 F4800
G0 X123.73 Y84.94
G0 X125.6 Y87.81
G0 X125.45 Y91.14
G0 X123.58 Y93.72
G0 X120.4 Y94.95
G0 Z4.7
G1 E202.699 F2100
G1 X119.53 Y94.88 E202.743 F900
G1 X118.69 Y94.68 E202.786
G1 X117.88 Y94.34 E202.83
G1 X117.14 Y93.89 E202.873
G1 X116.48 Y93.32 E202.916
G1 X115.91 Y92.66 E202.96
G1 X115.46 Y91.92 E203.003
G1 X115.12 Y91.11 E203.047
G1 X114.92 Y90.27 E203.09
G1 X114.85 Y89.4 E203.134
G1 X114.92 Y88.53 E203.177
G1 X115.12 Y87.69 E203.22
G1 X115.46 Y86.88 E203.264
G1 X115.91 Y86.14 E203.307
G1 X116.48 Y85.48 E203.351
G1 X117.14 Y84.91 E203.394
G1 X117.88 Y84.46 E203.438
G1 X118.69 Y84.12 E203.481
G1 X119.53 Y83.92 E203.525
G1 X120.4 Y83.85 E203.568
G1 X121.27 Y83.92 E203.612
G1 X122.11 Y84.12 E203.655
G1 X122.92 Y84.46 E203.698
G1 X123.66 Y84.91 E203.742
G1 X124.32 Y85.48 E203.785
G1 X124.89 Y86.14 E203.829
G1 X125.34 Y86.88 E203.872
G1 X125.68 Y87.69 E203.916
G1 X125.88 Y88.53 E203.959
G1 X125.95 Y89.4 E204.003
G1 X125.88 Y90.27 E204.046
G1 X125.68 Y91.11 E204.089
G1 X125.34 Y91.92 E204.133
G1 X124.89 Y92.66 E204.176
G1 X124.32 Y93.32 E204.22
G1 X123.66 Y93.89 E204.263
G1 X122.92 Y94.34 E204.307
G1 X122.11 Y94.68 E204.35
G1 X121.27 Y94.88 E204.394
G1 X120.52 Y94.94 E204.431
G0 X120.4 Y94.95
G0 X119.53 Y94.88
G0 X118.69 Y94.68
G0 X117.88 Y94.34
G0 X117.55 Y94.14
; Layer Change GCode
; LAYER:16
; LAYER_HEIGHT:0.3
; TYPE:FILL
G1 E203.631 F2100
G0 Z5.3
G0 Y93.99 Z5.6 F4800
G0 X119.53 Y94.88
; TYPE:WALL-OUTER
G0 Z5
G1 E204.431 F2100
G1 X118.69 Y94.68 E204.474 F900
G1 X117.88 Y94.34 E204.518
G1 X117.14 Y93.89 E204.561
G1 X116.48 Y93.32 E204.605
G1 X115.91 Y92.66 E204.648
G1 X115.46 Y91.92 E204.692
G1 X115.12 Y91.11 E204.735
G1 X114.92 Y90.27 E204.778
G1 X114.85 Y89.4 E204.822
G1 X114.92 Y88.53 E204.865
G1 X115.12 Y87.69 E204.909
G1 X115.46 Y86.88 E204.952
G1 X115.91 Y86.14 E204.996
G1 X116.48 Y85.48 E205.039
G1 X117.14 Y84.91 E205.083
G1 X117.88 Y84.46 E205.126
G1 X118.69 Y84.12 E205.17
G1 X119.53 Y83.92 E205.213
G1 X120.4 Y83.85 E205.256
G1 X121.27 Y83.92 E205.3
G1 X122.11 Y84.12 E205.343
G1 X122.92 Y84.46 E205.387
G1 X123.66 Y84.91 E205.43
G1 X124.32 Y85.48 E205.474
G1 X124.89 Y86.14 E205.517
G1 X125.34 Y86.88 E205.56
G1 X125.68 Y87.69 E205.604
G1 X125.88 Y88.53 E205.647
G1 X125.95 Y89.4 E205.691
G1 X125.88 Y90.27 E205.734
G1 X125.68 Y91.11 E205.778
G1 X125.34 Y91.92 E205.821
G1 X124.89 Y92.66 E205.865
G1 X124.32 Y93.32 E205.908
G1 X123.66 Y93.89 E205.952
G1 X122.92 Y94.34 E205.995
G1 X122.11 Y94.68 E206.039
G1 X121.27 Y94.88 E206.082
G1 X120.4 Y94.95 E206.125
G1 X119.65 Y94.89 E206.163
G0 X119.53 Y94.88
G0 X118.69 Y94.68
G0 X117.88 Y94.34
G0 X117.14 Y93.89
G0 X116.84 Y93.64
G1 E205.363 F2100
G0 Z5.6
G0 X119.53 Y94.73 F4800
G0 X116.65 Y93.15
G0 X115.66 Y92.19
G0 X115.02 Y88.59
G0 X115.94 Y86.07
G0 X117.76 Y84.51
G0 X119.56 Y84.12
G0 Z5
G1 E206.163 F2100
G1 X118.75 Y84.31 E206.205 F900
G1 X117.97 Y84.63 E206.247
G1 X117.25 Y85.07 E206.288
G1 X116.62 Y85.62 E206.33
G1 X116.07 Y86.25 E206.372
G1 X115.63 Y86.97 E206.414
G1 X115.31 Y87.75 E206.456
G1 X115.12 Y88.56 E206.498
G1 X115.05 Y89.4 E206.54
G1 X115.12 Y90.24 E206.582
G1 X115.31 Y91.05 E206.624
G1 X115.63 Y91.83 E206.665
G1 X116.07 Y92.55 E206.707
G1 X116.62 Y93.18 E206.749
G1 X117.25 Y93.73 E206.791
G1 X117.97 Y94.17 E206.833
G1 X118.75 Y94.49 E206.875
G1 X119.56 Y94.68 E206.917
G1 X120.4 Y94.75 E206.959
G1 X121.24 Y94.68 E207.001
G1 X122.05 Y94.49 E207.042
G1 X122.83 Y94.17 E207.084
G1 X123.55 Y93.73 E207.126
G1 X124.18 Y93.18 E207.168
G1 X124.73 Y92.55 E207.21
G1 X125.17 Y91.83 E207.252
G1 X125.49 Y91.05 E207.294
G1 X125.68 Y90.24 E207.336
G1 X125.75 Y89.4 E207.378
G1 X125.68 Y88.56 E207.419
G1 X125.49 Y87.75 E207.461
G1 X125.17 Y86.97 E207.503
G1 X124.73 Y86.25 E207.545
G1 X124.18 Y85.62 E207.587
G1 X123.55 Y85.07 E207.629
G1 X122.83 Y84.63 E207.671
G1 X122.05 Y84.31 E207.713
G1 X121.24 Y84.12 E207.755
G1 X120.4 Y84.05 E207.796
G1 X119.68 Y84.11 E207.832
G0 X119.56 Y84.12
G0 X118.75 Y84.31
G0 X117.97 Y84.63
G0 X117.25 Y85.07
G0 X116.89 Y85.38
; Layer Change GCode
; LAYER:17
; LAYER_HEIGHT:0.3
; TYPE:FILL
G1 E207.032 F2100
G0 Z5.6
G0 X116.74 Y85.24 Z5.9 F4800
G0 X119.59 Y84.02
G0 X121.24 Y84.12
; TYPE:WALL-OUTER
G0 Z5.3
G1 E207.832 F2100
G1 X120.4 Y84.05 E207.874 F900
G1 X119.56 Y84.12 E207.916
G1 X118.75 Y84.31 E207.958
G1 X117.97 Y84.63 E208
G1 X117.25 Y85.07 E208.042
G1 X116.62 Y85.62 E208.084
G1 X116.07 Y86.25 E208.125
G1 X115.63 Y86.97 E208.167
G1 X115.31 Y87.75 E208.209
G1 X115.12 Y88.56 E208.251
G1 X115.05 Y89.4 E208.293
G1 X115.12 Y90.24 E208.335
G1 X115.31 Y91.05 E208.377
G1 X115.63 Y91.83 E208.419
G1 X116.07 Y92.55 E208.461
G1 X116.62 Y93.18 E208.503
G1 X117.25 Y93.73 E208.544
G1 X117.97 Y94.17 E208.586
G1 X118.75 Y94.49 E208.628
G1 X119.56 Y94.68 E208.67
G1 X120.4 Y94.75 E208.712
G1 X121.24 Y94.68 E208.754
G1 X122.05 Y94.49 E208.796
G1 X122.83 Y94.17 E208.838
G1 X123.55 Y93.73 E208.88
G1 X124.18 Y93.18 E208.921
G1 X124.73 Y92.55 E208.963
G1 X125.17 Y91.83 E209.005
G1 X125.49 Y91.05 E209.047
G1 X125.68 Y90.24 E209.089
G1 X125.75 Y89.4 E209.131
G1 X125.68 Y88.56 E209.173
G1 X125.49 Y87.75 E209.215
G1 X125.17 Y86.97 E209.257
G1 X124.73 Y86.25 E209.298
G1 X124.18 Y85.62 E209.34
G1 X123.55 Y85.07 E209.382
G1 X122.83 Y84.63 E209.424
G1 X122.05 Y84.31 E209.466
G1 X121.35 Y84.14 E209.502
G0 X121.24 Y84.12
G0 X120.4 Y84.05
G0 X119.56 Y84.12
G0 X118.75 Y84.31
G0 X118.3 Y84.5
G1 E208.702 F2100
G0 Z5.9
G0 X121.24 Y83.97 F4800
G0 X123.73 Y84.94
G0 X125.6 Y87.81
G0 X125.45 Y91.14
G0 X123.58 Y93.72
G0 X121.27 Y94.88
G0 Z5.3
G1 E209.502 F2100
G1 X120.4 Y94.95 E209.545 F900
G1 X119.53 Y94.88 E209.589
G1 X118.69 Y94.68 E209.632
G1 X117.88 Y94.34 E209.676
G1 X117.14 Y93.89 E209.719
G1 X116.48 Y93.32 E209.763
G1 X115.91 Y92.66 E209.806
G1 X115.46 Y91.92 E209.849
G1 X115.12 Y91.11 E209.893
G1 X114.92 Y90.27 E209.936
G1 X114.85 Y89.4 E209.98
G1 X114.92 Y88.53 E210.023
G1 X115.12 Y87.69 E210.067
G1 X115.46 Y86.88 E210.11
G1 X115.91 Y86.14 E210.153
G1 X116.48 Y85.48 E210.197
G1 X117.14 Y84.91 E210.241
G1 X117.88 Y84.46 E210.284
G1 X118.69 Y84.12 E210.327
G1 X119.53 Y83.92 E210.371
G1 X120.4 Y83.85 E210.414
G1 X121.27 Y83.92 E210.458
G1 X122.11 Y84.12 E210.501
G1 X122.92 Y84.46 E210.545
G1 X123.66 Y84.91 E210.588
G1 X124.32 Y85.48 E210.631
G1 X124.89 Y86.14 E210.675
G1 X125.34 Y86.88 E210.718
G1 X125.68 Y87.69 E210.762
G1 X125.88 Y88.53 E210.805
G1 X125.95 Y89.4 E210.849
G1 X125.88 Y90.27 E210.892
G1 X125.68 Y91.11 E210.935
G1 X125.34 Y91.92 E210.979
G1 X124.89 Y92.66 E211.022
G1 X124.32 Y93.32 E211.066
G1 X123.66 Y93.89 E211.109
G1 X122.92 Y94.34 E211.153
G1 X122.11 Y94.68 E211.196
G1 X121.39 Y94.85 E211.234
G0 X121.27 Y94.88
G0 X120.4 Y94.95
G0 X119.53 Y94.88
G0 X118.69 Y94.68
G0 X118.33 Y94.53
; Layer Change GCode
; LAYER:18
; LAYER_HEIGHT:0.3
; TYPE:FILL
G1 E210.434 F2100
G0 Z5.9
G0 X118.48 Y94.38 Z6.2 F4800
G0 X120.4 Y94.95
; TYPE:WALL-OUTER
G0 Z5.6
G1 E211.234 F2100
G1 X119.53 Y94.88 E211.277 F900
G1 X118.69 Y94.68 E211.32
G1 X117.88 Y94.34 E211.364
G1 X117.14 Y93.89 E211.407
G1 X116.48 Y93.32 E211.451
G1 X115.91 Y92.66 E211.494
G1 X115.46 Y91.92 E211.538
G1 X115.12 Y91.11 E211.581
G1 X114.92 Y90.27 E211.625
G1 X114.85 Y89.4 E211.668
G1 X114.92 Y88.53 E211.712
G1 X115.12 Y87.69 E211.755
G1 X115.46 Y86.88 E211.799
G1 X115.91 Y86.14 E211.842
G1 X116.48 Y85.48 E211.885
G1 X117.14 Y84.91 E211.929
G1 X117.88 Y84.46 E211.972
G1 X118.69 Y84.12 E212.016
G1 X119.53 Y83.92 E212.059
G1 X120.4 Y83.85 E212.103
G1 X121.27 Y83.92 E212.146
G1 X122.11 Y84.12 E212.189
G1 X122.92 Y84.46 E212.233
G1 X123.66 Y84.91 E212.276
G1 X124.32 Y85.48 E212.32
G1 X124.89 Y86.14 E212.363
G1 X125.34 Y86.88 E212.407
G1 X125.68 Y87.69 E212.45
G1 X125.88 Y88.53 E212.494
G1 X125.95 Y89.4 E212.537
G1 X125.88 Y90.27 E212.581
G1 X125.68 Y91.11 E212.624
G1 X125.34 Y91.92 E212.667
G1 X124.89 Y92.66 E212.711
G1 X124.32 Y93.32 E212.754
G1 X123.66 Y93.89 E212.798
G1 X122.92 Y94.34 E212.841
G1 X122.11 Y94.68 E212.885
G1 X121.27 Y94.88 E212.928
G1 X120.52 Y94.94 E212.965
G0 X120.4 Y94.95
G0 X119.53 Y94.88
G0 X118.69 Y94.68
G0 X117.88 Y94.34
G0 X117.55 Y94.14
G1 E212.165 F2100
G0 Z6.2
G0 X120.4 Y94.65 F4800
G0 X117.91 Y94.14
G0 X115.66 Y92.19
G0 X115.02 Y88.59
G0 X115.94 Y86.07
G0 X117.76 Y84.51
G0 X118.75 Y84.31
G0 Z5.6
G1 E212.965 F2100
G1 X117.97 Y84.63 E213.007 F900
G1 X117.25 Y85.07 E213.049
G1 X116.62 Y85.62 E213.091
G1 X116.07 Y86.25 E213.133
G1 X115.63 Y86.97 E213.175
G1 X115.31 Y87.75 E213.217
G1 X115.12 Y88.56 E213.259
G1 X115.05 Y89.4 E213.301
G1 X115.12 Y90.24 E213.342
G1 X115.31 Y91.05 E213.384
G1 X115.63 Y91.83 E213.426
G1 X116.07 Y92.55 E213.468
G1 X116.62 Y93.18 E213.51
G1 X117.25 Y93.73 E213.552
G1 X117.97 Y94.17 E213.594
G1 X118.75 Y94.49 E213.636
G1 X119.56 Y94.68 E213.678
G1 X120.4 Y94.75 E213.72
G1 X121.24 Y94.68 E213.761
G1 X122.05 Y94.49 E213.803
G1 X122.83 Y94.17 E213.845
G1 X123.55 Y93.73 E213.887
G1 X124.18 Y93.18 E213.929
G1 X124.73 Y92.55 E213.971
G1 X125.17 Y91.83 E214.013
G1 X125.49 Y91.05 E214.055
G1 X125.68 Y90.24 E214.097
G1 X125.75 Y89.4 E214.138
G1 X125.68 Y88.56 E214.18
G1 X125.49 Y87.75 E214.222
G1 X125.17 Y86.97 E214.264
G1 X124.73 Y86.25 E214.306
G1 X124.18 Y85.62 E214.348
G1 X123.55 Y85.07 E214.39
G1 X122.83 Y84.63 E214.432
G1 X122.05 Y84.31 E214.473
G1 X121.24 Y84.12 E214.515
G1 X120.4 Y84.05 E214.557
G1 X119.56 Y84.12 E214.599
G1 X118.86 Y84.28 E214.635
G0 X118.75 Y84.31
G0 X117.97 Y84.63
G0 X117.25 Y85.07
G0 X116.62 Y85.62
G0 X116.3 Y85.98
; Layer Change GCode
; LAYER:19
; LAYER_HEIGHT:0.3
; TYPE:FILL
G1 E213.835 F2100
G0 Z6.2
G0 X116.15 Y85.83 Z6.5 F4800
G0 X118.81 Y84.06
G0 X122.05 Y84.31
; TYPE:WALL-OUTER
G0 Z5.9
G1 E214.635 F2100
G1 X121.24 Y84.12 E214.677 F900
G1 X120.4 Y84.05 E214.719
G1 X119.56 Y84.12 E214.761
G1 X118.75 Y84.31 E214.803
G1 X117.97 Y84.63 E214.845
G1 X117.25 Y85.07 E214.886
G1 X116.62 Y85.62 E214.928
G1 X116.07 Y86.25 E214.97
G1 X115.63 Y86.97 E215.012
G1 X115.31 Y87.75 E215.054
G1 X115.12 Y88.56 E215.096
G1 X115.05 Y89.4 E215.138
G1 X115.12 Y90.24 E215.18
G1 X115.31 Y91.05 E215.221
G1 X115.63 Y91.83 E215.263
G1 X116.07 Y92.55 E215.305
G1 X116.62 Y93.18 E215.347
G1 X117.25 Y93.73 E215.389
G1 X117.97 Y94.17 E215.431
G1 X118.75 Y94.49 E215.473
G1 X119.56 Y94.68 E215.515
G1 X120.4 Y94.75 E215.557
G1 X121.24 Y94.68 E215.598
G1 X122.05 Y94.49 E215.64
G1 X122.83 Y94.17 E215.682
G1 X123.55 Y93.73 E215.724
G1 X124.18 Y93.18 E215.766
G1 X124.73 Y92.55 E215.808
G1 X125.17 Y91.83 E215.85
G1 X125.49 Y91.05 E215.892
G1 X125.68 Y90.24 E215.934
G1 X125.75 Y89.4 E215.975
G1 X125.68 Y88.56 E216.017
G1 X125.49 Y87.75 E216.059
G1 X125.17 Y86.97 E216.101
G1 X124.73 Y86.25 E216.143
G1 X124.18 Y85.62 E216.185
G1 X123.55 Y85.07 E216.227
G1 X122.83 Y84.63 E216.269
G1 X122.16 Y84.36 E216.305
G0 X122.05 Y84.31
G0 X121.24 Y84.12
G0 X120.4 Y84.05
G0 X119.56 Y84.12
G0 X119.09 Y84.23
G1 E215.505 F2100
G0 Z6.5
G0 X122.05 Y84.31 F4800
G0 X123.73 Y84.94
G0 X125.6 Y87.81
G0 X125.45 Y91.14
G0 X123.58 Y93.72
G0 X120.37 Y94.68
G0 X119.53 Y94.88
G0 Z5.9
G1 E216.305 F2100
G1 X118.69 Y94.68 E216.348 F900
G1 X117.88 Y94.34 E216.392
G1 X117.14 Y93.89 E216.435
G1 X116.48 Y93.32 E216.478
G1 X115.91 Y92.66 E216.522
G1 X115.46 Y91.92 E216.565
G1 X115.12 Y91.11 E216.609
G1 X114.92 Y90.27 E216.652
G1 X114.85 Y89.4 E216.696
G1 X114.92 Y88.53 E216.739
G1 X115.12 Y87.69 E216.782
G1 X115.46 Y86.88 E216.826
G1 X115.91 Y86.14 E216.869
G1 X116.48 Y85.48 E216.913
G1 X117.14 Y84.91 E216.956
G1 X117.88 Y84.46 E217
G1 X118.69 Y84.12 E217.043
G1 X119.53 Y83.92 E217.087
G1 X120.4 Y83.85 E217.13
G1 X121.27 Y83.92 E217.174
G1 X122.11 Y84.12 E217.217
G1 X122.92 Y84.46 E217.26
G1 X123.66 Y84.91 E217.304
G1 X124.32 Y85.48 E217.347
G1 X124.89 Y86.14 E217.391
G1 X125.34 Y86.88 E217.434
G1 X125.68 Y87.69 E217.478
G1 X125.88 Y88.53 E217.521
G1 X125.95 Y89.4 E217.565
G1 X125.88 Y90.27 E217.608
G1 X125.68 Y91.11 E217.651
G1 X125.34 Y91.92 E217.695
G1 X124.89 Y92.66 E217.738
G1 X124.32 Y93.32 E217.782
G1 X123.66 Y93.89 E217.825
G1 X122.92 Y94.34 E217.869
G1 X122.11 Y94.68 E217.912
G1 X121.27 Y94.88 E217.955
G1 X120.4 Y94.95 E217.999
G1 X119.65 Y94.89 E218.036
G0 X119.53 Y94.88
G0 X118.69 Y94.68
G0 X117.88 Y94.34
G0 X117.14 Y93.89
G0 X116.84 Y93.64
; Layer Change GCode
; LAYER:20
; LAYER_HEIGHT:0.3
; TYPE:FILL
G1 E217.236 F2100
G0 Z6.5
G0 Z6.8 F4800
G0 X119.59 Y94.64
G0 X121.27 Y94.88
; TYPE:WALL-OUTER
G0 Z6.2
G1 E218.036 F2100
G1 X120.4 Y94.95 E218.08 F900
G1 X119.53 Y94.88 E218.123
G1 X118.69 Y94.68 E218.167
G1 X117.88 Y94.34 E218.21
G1 X117.14 Y93.89 E218.254
G1 X116.48 Y93.32 E218.297
G1 X115.91 Y92.66 E218.341
G1 X115.46 Y91.92 E218.384
G1 X115.12 Y91.11 E218.428
G1 X114.92 Y90.27 E218.471
G1 X114.85 Y89.4 E218.514
G1 X114.92 Y88.53 E218.558
G1 X115.12 Y87.69 E218.601
G1 X115.46 Y86.88 E218.645
G1 X115.91 Y86.14 E218.688
G1 X116.48 Y85.48 E218.732
G1 X117.14 Y84.91 E218.775
G1 X117.88 Y84.46 E218.818
G1 X118.69 Y84.12 E218.862
G1 X119.53 Y83.92 E218.905
G1 X120.4 Y83.85 E218.949
G1 X121.27 Y83.92 E218.992
G1 X122.11 Y84.12 E219.036
G1 X122.92 Y84.46 E219.079
G1 X123.66 Y84.91 E219.122
G1 X124.32 Y85.48 E219.166
G1 X124.89 Y86.14 E219.21
G1 X125.34 Y86.88 E219.253
G1 X125.68 Y87.69 E219.296
G1 X125.88 Y88.53 E219.34
G1 X125.95 Y89.4 E219.383
G1 X125.88 Y90.27 E219.427
G1 X125.68 Y91.11 E219.47
G1 X125.34 Y91.92 E219.514
G1 X124.89 Y92.66 E219.557
G1 X124.32 Y93.32 E219.6
G1 X123.66 Y93.89 E219.644
G1 X122.92 Y94.34 E219.687
G1 X122.11 Y94.68 E219.731
G1 X121.39 Y94.85 E219.768
G0 X121.27 Y94.88
G0 X120.4 Y94.95
G0 X119.53 Y94.88
G0 X118.69 Y94.68
G0 X118.33 Y94.53
G1 E218.968 F2100
G0 Z6.8
G0 X121.27 Y94.73 F4800
G0 X124.19 Y93.19
G0 X125.64 Y90.21
G0 X125.6 Y87.81
G0 X123.73 Y84.94
G0 X121.2 Y83.98
G0 X120.4 Y84.05
G0 Z6.2
G1 E219.768 F2100
G1 X119.56 Y84.12 E219.81 F900
G1 X118.75 Y84.31 E219.852
G1 X117.97 Y84.63 E219.894
G1 X117.25 Y85.07 E219.936
G1 X116.62 Y85.62 E219.978
G1 X116.07 Y86.25 E220.02
G1 X115.63 Y86.97 E220.061
G1 X115.31 Y87.75 E220.103
G1 X115.12 Y88.56 E220.145
G1 X115.05 Y89.4 E220.187
G1 X115.12 Y90.24 E220.229
G1 X115.31 Y91.05 E220.271
G1 X115.63 Y91.83 E220.313
G1 X116.07 Y92.55 E220.355
G1 X116.62 Y93.18 E220.397
G1 X117.25 Y93.73 E220.438
G1 X117.97 Y94.17 E220.48
G1 X118.75 Y94.49 E220.522
G1 X119.56 Y94.68 E220.564
G1 X120.4 Y94.75 E220.606
G1 X121.24 Y94.68 E220.648
G1 X122.05 Y94.49 E220.69
G1 X122.83 Y94.17 E220.732
G1 X123.55 Y93.73 E220.774
G1 X124.18 Y93.18 E220.815
G1 X124.73 Y92.55 E220.857
G1 X125.17 Y91.83 E220.899
G1 X125.49 Y91.05 E220.941
G1 X125.68 Y90.24 E220.983
G1 X125.75 Y89.4 E221.025
G1 X125.68 Y88.56 E221.067
G1 X125.49 Y87.75 E221.109
G1 X125.17 Y86.97 E221.151
G1 X124.73 Y86.25 E221.192
G1 X124.18 Y85.62 E221.234
G1 X123.55 Y85.07 E221.276
G1 X122.83 Y84.63 E221.318
G1 X122.05 Y84.31 E221.36
G1 X121.24 Y84.12 E221.402
G1 X120.52 Y84.06 E221.438
G0 X120.4 Y84.05
G0 X119.56 Y84.12
G0 X118.75 Y84.31
G0 X117.97 Y84.63
G0 X117.56 Y84.88
; Layer Change GCode
; LAYER:21
; LAYER_HEIGHT:0.3
; TYPE:FILL
G1 E220.638 F2100
G0 Z6.8
G0 Y84.74 Z7.1 F4800
G0 X119.56 Y84.12
; TYPE:WALL-OUTER
G0 Z6.5
G1 E221.438 F2100
G1 X118.75 Y84.31 E221.48 F900
G1 X117.97 Y84.63 E221.522
G1 X117.25 Y85.07 E221.563
G1 X116.62 Y85.62 E221.605
G1 X116.07 Y86.25 E221.647
G1 X115.63 Y86.97 E221.689
G1 X115.31 Y87.75 E221.731
G1 X115.12 Y88.56 E221.773
G1 X115.05 Y89.4 E221.815
G1 X115.12 Y90.24 E221.857
G1 X115.31 Y91.05 E221.899
G1 X115.63 Y91.83 E221.94
G1 X116.07 Y92.55 E221.982
G1 X116.62 Y93.18 E222.024
G1 X117.25 Y93.73 E222.066
G1 X117.97 Y94.17 E222.108
G1 X118.75 Y94.49 E222.15
G1 X119.56 Y94.68 E222.192
G1 X120.4 Y94.75 E222.234
G1 X121.24 Y94.68 E222.276
G1 X122.05 Y94.49 E222.317
G1 X122.83 Y94.17 E222.359
G1 X123.55 Y93.73 E222.401
G1 X124.18 Y93.18 E222.443
G1 X124.73 Y92.55 E222.485
G1 X125.17 Y91.83 E222.527
G1 X125.49 Y91.05 E222.569
G1 X125.68 Y90.24 E222.611
G1 X125.75 Y89.4 E222.653
G1 X125.68 Y88.56 E222.694
G1 X125.49 Y87.75 E222.736
G1 X125.17 Y86.97 E222.778
G1 X124.73 Y86.25 E222.82
G1 X124.18 Y85.62 E222.862
G1 X123.55 Y85.07 E222.904
G1 X122.83 Y84.63 E222.946
G1 X122.05 Y84.31 E222.988
G1 X121.24 Y84.12 E223.03
G1 X120.4 Y84.05 E223.071
G1 X119.68 Y84.11 E223.107
G0 X119.56 Y84.12
G0 X118.75 Y84.31
G0 X117.97 Y84.63
G0 X117.25 Y85.07
G0 X116.89 Y85.38
G1 E222.307 F2100
G0 Z7.1
G0 X119.56 Y83.97 F4800
G0 X116.46 Y85.46
G0 X115.06 Y87.81
G0 X115.2 Y91.29
G0 X115.94 Y92.73
G0 X118.81 Y94.6
G0 X120.4 Y94.95
G0 Z6.5
G1 E223.107 F2100
G1 X119.53 Y94.88 E223.151 F900
G1 X118.69 Y94.68 E223.194
G1 X117.88 Y94.34 E223.238
G1 X117.14 Y93.89 E223.281
G1 X116.48 Y93.32 E223.325
G1 X115.91 Y92.66 E223.368
G1 X115.46 Y91.92 E223.411
G1 X115.12 Y91.11 E223.455
G1 X114.92 Y90.27 E223.498
G1 X114.85 Y89.4 E223.542
G1 X114.92 Y88.53 E223.585
G1 X115.12 Y87.69 E223.629
G1 X115.46 Y86.88 E223.672
G1 X115.91 Y86.14 E223.715
G1 X116.48 Y85.48 E223.759
G1 X117.14 Y84.91 E223.803
G1 X117.88 Y84.46 E223.846
G1 X118.69 Y84.12 E223.889
G1 X119.53 Y83.92 E223.933
G1 X120.4 Y83.85 E223.976
G1 X121.27 Y83.92 E224.02
G1 X122.11 Y84.12 E224.063
G1 X122.92 Y84.46 E224.107
G1 X123.66 Y84.91 E224.15
G1 X124.32 Y85.48 E224.193
G1 X124.89 Y86.14 E224.237
G1 X125.34 Y86.88 E224.28
G1 X125.68 Y87.69 E224.324
G1 X125.88 Y88.53 E224.367
G1 X125.95 Y89.4 E224.411
G1 X125.88 Y90.27 E224.454
G1 X125.68 Y91.11 E224.497
G1 X125.34 Y91.92 E224.541
G1 X124.89 Y92.66 E224.584
G1 X124.32 Y93.32 E224.628
G1 X123.66 Y93.89 E224.671
G1 X122.92 Y94.34 E224.715
G1 X122.11 Y94.68 E224.758
G1 X121.27 Y94.88 E224.802
G1 X120.52 Y94.94 E224.839
G0 X120.4 Y94.95
G0 X119.53 Y94.88
G0 X118.69 Y94.68
G0 X117.88 Y94.34
G0 X117.55 Y94.14
; Layer Change GCode
; LAYER:22
; LAYER_HEIGHT:0.3
; TYPE:FILL
G1 E224.039 F2100
G0 Z7.1
G0 Y93.99 Z7.4 F4800
G0 X119.53 Y94.88
; TYPE:WALL-OUTER
G0 Z6.8
G1 E224.839 F2100
G1 X118.69 Y94.68 E224.882 F900
G1 X117.88 Y94.34 E224.926
G1 X117.14 Y93.89 E224.969
G1 X116.48 Y93.32 E225.013
G1 X115.91 Y92.66 E225.056
G1 X115.46 Y91.92 E225.1
G1 X115.12 Y91.11 E225.143
G1 X114.92 Y90.27 E225.187
G1 X114.85 Y89.4 E225.23
G1 X114.92 Y88.53 E225.274
G1 X115.12 Y87.69 E225.317
G1 X115.46 Y86.88 E225.361
G1 X115.91 Y86.14 E225.404
G1 X116.48 Y85.48 E225.447
G1 X117.14 Y84.91 E225.491
G1 X117.88 Y84.46 E225.534
G1 X118.69 Y84.12 E225.578
G1 X119.53 Y83.92 E225.621
G1 X120.4 Y83.85 E225.665
G1 X121.27 Y83.92 E225.708
G1 X122.11 Y84.12 E225.751
G1 X122.92 Y84.46 E225.795
G1 X123.66 Y84.91 E225.838
G1 X124.32 Y85.48 E225.882
G1 X124.89 Y86.14 E225.925
G1 X125.34 Y86.88 E225.969
G1 X125.68 Y87.69 E226.012
G1 X125.88 Y88.53 E226.056
G1 X125.95 Y89.4 E226.099
G1 X125.88 Y90.27 E226.142
G1 X125.68 Y91.11 E226.186
G1 X125.34 Y91.92 E226.229
G1 X124.89 Y92.66 E226.273
G1 X124.32 Y93.32 E226.316
G1 X123.66 Y93.89 E226.36
G1 X122.92 Y94.34 E226.403
G1 X122.11 Y94.68 E226.447
G1 X121.27 Y94.88 E226.49
G1 X120.4 Y94.95 E226.533
G1 X119.65 Y94.89 E226.571
G0 X119.53 Y94.88
G0 X118.69 Y94.68
G0 X117.88 Y94.34
G0 X117.14 Y93.89
G0 X116.84 Y93.64
G1 E225.771 F2100
G0 Z7.4
G0 X119.53 Y94.73 F4800
G0 X116.65 Y93.15
G0 X115.66 Y92.19
G0 X115.02 Y88.59
G0 X115.94 Y86.07
G0 X118.81 Y84.06
G0 X121.24 Y84.12
G0 Z6.8
G1 E226.571 F2100
G1 X120.4 Y84.05 E226.613 F900
G1 X119.56 Y84.12 E226.655
G1 X118.75 Y84.31 E226.697
G1 X117.97 Y84.63 E226.738
G1 X117.25 Y85.07 E226.78
G1 X116.62 Y85.62 E226.822
G1 X116.07 Y86.25 E226.864
G1 X115.63 Y86.97 E226.906
G1 X115.31 Y87.75 E226.948
G1 X115.12 Y88.56 E226.99
G1 X115.05 Y89.4 E227.032
G1 X115.12 Y90.24 E227.074
G1 X115.31 Y91.05 E227.115
G1 X115.63 Y91.83 E227.157
G1 X116.07 Y92.55 E227.199
G1 X116.62 Y93.18 E227.241
G1 X117.25 Y93.73 E227.283
G1 X117.97 Y94.17 E227.325
G1 X118.75 Y94.49 E227.367
G1 X119.56 Y94.68 E227.409
G1 X120.4 Y94.75 E227.451
G1 X121.24 Y94.68 E227.492
G1 X122.05 Y94.49 E227.534
G1 X122.83 Y94.17 E227.576
G1 X123.55 Y93.73 E227.618
G1 X124.18 Y93.18 E227.66
G1 X124.73 Y92.55 E227.702
G1 X125.17 Y91.83 E227.744
G1 X125.49 Y91.05 E227.786
G1 X125.68 Y90.24 E227.828
G1 X125.75 Y89.4 E227.869
G1 X125.68 Y88.56 E227.911
G1 X125.49 Y87.75 E227.953
G1 X125.17 Y86.97 E227.995
G1 X124.73 Y86.25 E228.037
G1 X124.18 Y85.62 E228.079
G1 X123.55 Y85.07 E228.121
G1 X122.83 Y84.63 E228.163
G1 X122.05 Y84.31 E228.205
G1 X121.35 Y84.14 E228.24
G0 X121.24 Y84.12
G0 X120.4 Y84.05
G0 X119.56 Y84.12
G0 X118.75 Y84.31
G0 X118.3 Y84.5
; Layer Change GCode
; LAYER:23
; LAYER_HEIGHT:0.3
; TYPE:FILL
G0 X118.75 Y84.31 Z7.1 F4800
; TYPE:WALL-OUTER
G1 X117.97 Y84.63 E228.282 F900
G1 X117.25 Y85.07 E228.324
G1 X116.62 Y85.62 E228.366
G1 X116.07 Y86.25 E228.408
G1 X115.63 Y86.97 E228.45
G1 X115.31 Y87.75 E228.492
G1 X115.12 Y88.56 E228.534
G1 X115.05 Y89.4 E228.576
G1 X115.12 Y90.24 E228.617
G1 X115.31 Y91.05 E228.659
G1 X115.63 Y91.83 E228.701
G1 X116.07 Y92.55 E228.743
G1 X116.62 Y93.18 E228.785
G1 X117.25 Y93.73 E228.827
G1 X117.97 Y94.17 E228.869
G1 X118.75 Y94.49 E228.911
G1 X119.56 Y94.68 E228.953
G1 X120.4 Y94.75 E228.995
G1 X121.24 Y94.68 E229.036
G1 X122.05 Y94.49 E229.078
G1 X122.83 Y94.17 E229.12
G1 X123.55 Y93.73 E229.162
G1 X124.18 Y93.18 E229.204
G1 X124.73 Y92.55 E229.246
G1 X125.17 Y91.83 E229.288
G1 X125.49 Y91.05 E229.33
G1 X125.68 Y90.24 E229.372
G1 X125.75 Y89.4 E229.413
G1 X125.68 Y88.56 E229.455
G1 X125.49 Y87.75 E229.497
G1 X125.17 Y86.97 E229.539
G1 X124.73 Y86.25 E229.581
G1 X124.18 Y85.62 E229.623
G1 X123.55 Y85.07 E229.665
G1 X122.83 Y84.63 E229.707
G1 X122.05 Y84.31 E229.748
G1 X121.24 Y84.12 E229.79
G1 X120.4 Y84.05 E229.832
G1 X119.56 Y84.12 E229.874
G1 X118.86 Y84.28 E229.91
G0 X118.75 Y84.31
G0 X117.97 Y84.63
G0 X117.25 Y85.07
G0 X116.62 Y85.62
G0 X116.3 Y85.98
G1 E229.11 F2100
G0 Z7.7
G0 X118.6 Y84.16 F4800
G0 X115.94 Y86.07
G0 X115.02 Y88.59
G0 X115.66 Y92.19
G0 X117.91 Y94.14
G0 X121.27 Y94.88
G0 Z7.1
G1 E229.91 F2100
G1 X120.4 Y94.95 E229.953 F900
G1 X119.53 Y94.88 E229.997
G1 X118.69 Y94.68 E230.04
G1 X117.88 Y94.34 E230.084
G1 X117.14 Y93.89 E230.127
G1 X116.48 Y93.32 E230.171
G1 X115.91 Y92.66 E230.214
G1 X115.46 Y91.92 E230.258
G1 X115.12 Y91.11 E230.301
G1 X114.92 Y90.27 E230.345
G1 X114.85 Y89.4 E230.388
G1 X114.92 Y88.53 E230.431
G1 X115.12 Y87.69 E230.475
G1 X115.46 Y86.88 E230.518
G1 X115.91 Y86.14 E230.562
G1 X116.48 Y85.48 E230.605
G1 X117.14 Y84.91 E230.649
G1 X117.88 Y84.46 E230.692
G1 X118.69 Y84.12 E230.736
G1 X119.53 Y83.92 E230.779
G1 X120.4 Y83.85 E230.822
G1 X121.27 Y83.92 E230.866
G1 X122.11 Y84.12 E230.909
G1 X122.92 Y84.46 E230.953
G1 X123.66 Y84.91 E230.996
G1 X124.32 Y85.48 E231.04
G1 X124.89 Y86.14 E231.083
G1 X125.34 Y86.88 E231.126
G1 X125.68 Y87.69 E231.17
G1 X125.88 Y88.53 E231.213
G1 X125.95 Y89.4 E231.257
